/* XPM */
static char *_4932cb3bb6045aaf1c0c7b3a239e417ZOpOqMewWrPZe99O[] = {
/* columns rows colors chars-per-pixel */
"64 64 6 1 ",
"  c black",
". c #E39DAB",
"X c #E86197",
"o c #E39DAB",
"O c #DBD3DB",
"+ c white",
/* pixels */
"................................................................",
".oooooooooooooooooooooooooooooooooooooooooooooooooooooooooooooo.",
".oooooooooooooooooooooooooooooooooooooooooooooooooooooooooooooo.",
".oooooooooooooooooooooooooooooooooooooooooooooooooooooooooooooo.",
".oooooooooooooooooooooooooooooooooooooooooooooooooooooooooooooo.",
".oooooooooooooooooooooooooooooooooooooooooooooooooooooooooooooo.",
".oooooooooooooooooooooooooooooooooooooooooooooooooooooooooooooo.",
".oooooooooooooooooooooooooooooooooooooooooooooooooooooooooooooo.",
".oooooooooooooooooooooooooooooooooooooooooooooooooooooooooooooo.",
".oooooooooooooooooooooooooooooooooooooooooooooooooooooooooooooo.",
".oooooooooooooooooooooooooooooooooooooooooooooooooooooooooooooo.",
".oooooooooooooooooooooooooooooooooooooooooooooooooooooooooooooo.",
".oooooooooooooooooooooooooooooooooooooooooooooooooooooooooooooo.",
".oooooooooooooooooooooooooooooooooooooooooooooooooooooooooooooo.",
".oooooooooooooooooooooooooooooooooooooooooooooooooooooooooooooo.",
".oooooooooooooooooooooooooooooooooooooooooooooooooooooooooooooo.",
".oooooooooooooooooooooooooooooooooooooooooooooooooooooooooooooo.",
".oooooooooooooooooooooooooooooooooooooooooooooooooooooooooooooo.",
".oooooooooooooooooooooooooooooooooooooooooooooooooooooooooooooo.",
".oooooooooooooooooooooooooooooooooooooooooooooooooooooooooooooo.",
".oooooooooooooooooooooooooooooooooooooooooooooooooooooooooooooo.",
".oooooooooooooooooooooooooooooooooooooooooooooooooooooooooooooo.",
".oooooooooooooooooooooooooooooooooooooooooooooooooooooooooooooo.",
".oooooooooooooooooooooooooooooooooooooooooooooooooooooooooooooo.",
".oooooooooooooooooooooooooooooooooooooooooooooooooooooooooooooo.",
".oooooooooooooooooooooooooooooooooooooooooooooooooooooooooooooo.",
".oooooooooooooooooooooooooooooooooooooooooooooooooooooooooooooo.",
".oooooooooooooooooooooooooooooooooooooooooooooooooooooooooooooo.",
".oooooooooooooooooooooooooooooooooooooooooooooooooooooooooooooo.",
".oooooooooooooooooo  ooooooooooooooooooooo  ooooooooooooooooooo.",
".oooooooooooooooooo X ooooooooooooooooooo X ooooooooooooooooooo.",
".oooooooooooooooooo XX ooooooooooooooooo XX ooooooooooooooooooo.",
".oooooooooooooooooo XXX o            oo XXX ooooooooooooooooooo.",
".oooooooooooooooooo XXXX  OOOOOOOOOOO  XXXX ooooooooooooooooooo.",
".oooooooooooooooooo XX  OO+++++++++++OO XXX ooooooooooooooooooo.",
".oooooooooooooooooo XX O+++++++++++++++O XX ooooooooooooooooooo.",
".oooooooooooooooooo X O+++++++++++++++++O X ooooooooooooooooooo.",
".ooooooooooooooooooo O+++++++++++++++++++O oooooooooooooooooooo.",
".ooooooooooooooooooo O+++++++++++++++++++O oooooooooooooooooooo.",
".ooooooooooooooooooo O+++++++++++++++++++OO ooooooooooooooooooo.",
".ooooooooooooooooooo O+++++++ + ++ + +++++O ooooooooooooooooooo.",
".ooooooooooooooooooo O++++++++ ++++ ++++++O ooooooooooooooooooo.",
".ooooooooooooooooooo O+++++++ + ++ + +++++O ooooooooooooooooooo.",
".ooooooooooooooooooo O+++++XX++++++++XX+++O  oooooooooooooooooo.",
".ooooooooooooooooooo O+++++XX++++++++XX++++OO ooooooooooooooooo.",
".oooooooooooooooooooooooooooooooooooooooooooooooooooooooooooooo.",
".oooooooooooooooooooooooooooooooooooooooooooooooooooooooooooooo.",
".oooooooooooooooooooooooooooooooooooooooooooooooooooooooooooooo.",
".oooooooooooooooooooooooooooooooooooooooooooooooooooooooooooooo.",
".oooooooooooooooooooooooooooooooooooooooooooooooooooooooooooooo.",
".oooooooooooooooooooooooooooooooooooooooooooooooooooooooooooooo.",
".oooooooooooooooooooooooooooooooooooooooooooooooooooooooooooooo.",
".oooooooooooooooooooooooooooooooooooooooooooooooooooooooooooooo.",
".oooooooooooooooooooooooooooooooooooooooooooooooooooooooooooooo.",
".oooooooooooooooooooooooooooooooooooooooooooooooooooooooooooooo.",
".oooooooooooooooooooooooooooooooooooooooooooooooooooooooooooooo.",
".oooooooooooooooooooooooooooooooooooooooooooooooooooooooooooooo.",
".oooooooooooooooooooooooooooooooooooooooooooooooooooooooooooooo.",
".oooooooooooooooooooooooooooooooooooooooooooooooooooooooooooooo.",
".oooooooooooooooooooooooooooooooooooooooooooooooooooooooooooooo.",
".oooooooooooooooooooooooooooooooooooooooooooooooooooooooooooooo.",
".oooooooooooooooooooooooooooooooooooooooooooooooooooooooooooooo.",
".oooooooooooooooooooooooooooooooooooooooooooooooooooooooooooooo.",
"................................................................"
};
