/* XPM */
static char *_297f472874a4588a83f3b71772e18e6GatGqjmg2rNILiiF[] = {
/* columns rows colors chars-per-pixel */
"64 64 6 1 ",
"  c black",
". c #E39DAB",
"X c #E86197",
"o c #E39DAB",
"O c #DBD3DB",
"+ c white",
/* pixels */
"................................................................",
".oooooooooooooooooooooooooooooooooooooooooooooooooooooooooooooo.",
".oooooooooooooooooooooooooooooooooooooooooooooooooooooooooooooo.",
".oooooooooooooooooooooooooooooooooooooooooooooooooooooooooooooo.",
".oooooooooooooooooooooooooooooooooooooooooooooooooooooooooooooo.",
".oooooooooooooooooooooooooooooooooooooooooooooooooooooooooooooo.",
".oooooooooooooooooooooooooooooooooooooooooooooooooooooooooooooo.",
".oooooooooooooooooooooooooooooooooooooooooooooooooooooooooooooo.",
".oooooooooooooooooooooooooooooooooooooooooooooooooooooooooooooo.",
".oooooooooooooooooooooooooooooooooooooooooooooooooooooooooooooo.",
".oooooooooooooooooooooooooooooooooooooooooooooooooooooooooooooo.",
".oooooooooooooooooooooooooooooooooooooooooooooooooooooooooooooo.",
".oooooooooooooooooooooooooooooooooooooooooooooooooooooooooooooo.",
".oooooooooooooooooooooooooooooooooooooooooooooooooooooooooooooo.",
".oooooooooooooooooooooooooooooooooooooooooooooooooooooooooooooo.",
".oooooooooooooooooooooooooooooooooooooooooooooooooooooooooooooo.",
".oooooooooooooooooooooooooooooooooooooooooooooooooooooooooooooo.",
".oooooooooooooooooo  ooooooooooooooooooooo  ooooooooooooooooooo.",
".oooooooooooooooooo X ooooooooooooooooooo X ooooooooooooooooooo.",
".oooooooooooooooooo XX ooooooooooooooooo XX ooooooooooooooooooo.",
".oooooooooooooooooo XXX o            oo XXX ooooooooooooooooooo.",
".oooooooooooooooooo XXXX  OOOOOOOOOOO  XXXX ooooooooooooooooooo.",
".oooooooooooooooooo XX  OO+++++++++++OO XXX ooooooooooooooooooo.",
".oooooooooooooooooo XX O+++++++++++++++O XX ooooooooooooooooooo.",
".oooooooooooooooooo X O+++++++++++++++++O X ooooooooooooooooooo.",
".ooooooooooooooooooo O+++++++++++++++++++O oooooooooooooooooooo.",
".ooooooooooooooooooo O+++++++++++++++++++O oooooooooooooooooooo.",
".ooooooooooooooooooo O+++++++++++++++++++OO ooooooooooooooooooo.",
".ooooooooooooooooooo O+++++++ + ++ + +++++O ooooooooooooooooooo.",
".ooooooooooooooooooo O++++++++ ++++ ++++++O ooooooooooooooooooo.",
".ooooooooooooooooooo O+++++++ + ++ + +++++O ooooooooooooooooooo.",
".ooooooooooooooooooo O+++++XX++++++++XX+++O  oooooooooooooooooo.",
".ooooooooooooooooooo O+++++XX++++++++XX++++OO ooooooooooooooooo.",
".ooooooooooooooooooo O++++++++++++++++++++++O ooooooooooooooooo.",
".ooooooooooooooooooo O+++++++++    +++++++++O ooooooooooooooooo.",
".ooooooooooooooooooo O+++++++++++++++++++++OO ooooooooooooooooo.",
".ooooooooooooooo oo O+++++++++++++++++++++O   ooooooooooooooooo.",
".oooooooooooooo O  O+++++++++++++++++++++O oooooooooooooooooooo.",
".oooooooooooooo OOO++++++++++++++++++++++O oooooooooooooooooooo.",
".oooooooooooooo O++++++++++++++++++++++++O oooooooooooooooooooo.",
".oooooooooooooo OO++++++++++++++++++++++O ooooooooooooooooooooo.",
".ooooooooooooooo  O++++++++++++++++++++O oooooooooooooooooooooo.",
".ooooooooooooooooo OO++++++++++++++++OO ooooooooooooooooooooooo.",
".oooooooooooooooooo  OOOOOOOOOOOOOOOO  oooooooooooooooooooooooo.",
".ooooooooooooooooooo                 oooooooooooooooooooooooooo.",
".oooooooooooooooooooooooooooooooooooooooooooooooooooooooooooooo.",
".oooooooooooooooooooooooooooooooooooooooooooooooooooooooooooooo.",
".oooooooooooooooooooooooooooooooooooooooooooooooooooooooooooooo.",
".oooooooooooooooooooooooooooooooooooooooooooooooooooooooooooooo.",
".oooooooooooooooooooooooooooooooooooooooooooooooooooooooooooooo.",
".oooooooooooooooooooooooooooooooooooooooooooooooooooooooooooooo.",
".oooooooooooooooooooooooooooooooooooooooooooooooooooooooooooooo.",
".oooooooooooooooooooooooooooooooooooooooooooooooooooooooooooooo.",
".oooooooooooooooooooooooooooooooooooooooooooooooooooooooooooooo.",
".oooooooooooooooooooooooooooooooooooooooooooooooooooooooooooooo.",
".oooooooooooooooooooooooooooooooooooooooooooooooooooooooooooooo.",
".oooooooooooooooooooooooooooooooooooooooooooooooooooooooooooooo.",
".oooooooooooooooooooooooooooooooooooooooooooooooooooooooooooooo.",
".oooooooooooooooooooooooooooooooooooooooooooooooooooooooooooooo.",
".oooooooooooooooooooooooooooooooooooooooooooooooooooooooooooooo.",
".oooooooooooooooooooooooooooooooooooooooooooooooooooooooooooooo.",
".oooooooooooooooooooooooooooooooooooooooooooooooooooooooooooooo.",
".oooooooooooooooooooooooooooooooooooooooooooooooooooooooooooooo.",
"................................................................"
};
