/* XPM */
static char *_25a25db6a5d4acee43c327bbdb013c15kS76AvjarxJGc8n[] = {
/* columns rows colors chars-per-pixel */
"64 64 6 1 ",
"  c black",
". c #E39DAB",
"X c #E86197",
"o c #E39DAB",
"O c #DBD3DB",
"+ c white",
/* pixels */
"................................................................",
".oooooooooooooooooooooooooooooooooooooooooooooooooooooooooooooo.",
".oooooooooooooooooooooooooooooooooooooooooooooooooooooooooooooo.",
".oooooooooooooooooooooooooooooooooooooooooooooooooooooooooooooo.",
".oooooooooooooooooooooooooooooooooooooooooooooooooooooooooooooo.",
".oooooooooooooooooooooooooooooooooooooooooooooooooooooooooooooo.",
".oooooooooooooooooooooooooooooooooooooooooooooooooooooooooooooo.",
".oooooooooooooooooooooooooooooooooooooooooooooooooooooooooooooo.",
".oooooooooooooooooooooooooooooooooooooooooooooooooooooooooooooo.",
".oooooooooooooooooooooooooooooooooooooooooooooooooooooooooooooo.",
".oooooooooooooooooooooooooooooooooooooooooooooooooooooooooooooo.",
".oooooooooooooooooooooooooooooooooooooooooooooooooooooooooooooo.",
".oooooooooooooooooooooooooooooooooooooooooooooooooooooooooooooo.",
".oooooooooooooooooooooooooooooooooooooooooooooooooooooooooooooo.",
".oooooooooooooooooooooooooooooooooooooooooooooooooooooooooooooo.",
".oooooooooooooooooooooooooooooooooooooooooooooooooooooooooooooo.",
".oooooooooooooooooooooooooooooooooooooooooooooooooooooooooooooo.",
".oooooooooooooooooooooooooooooooooooooooooooooooooooooooooooooo.",
".oooooooooooooooooooooooooooooooooooooooooooooooooooooooooooooo.",
".oooooooooooooooooooooooooooooooooooooooooooooooooooooooooooooo.",
".oooooooooooooooooooooooooooooooooooooooooooooooooooooooooooooo.",
".oooooooooooooooooooooooooooooooooooooooooooooooooooooooooooooo.",
".oooooooooooooooooooooooooooooooooooooooooooooooooooooooooooooo.",
".oooooooooooooooooooooooooooooooooooooooooooooooooooooooooooooo.",
".oooooooooooooooooo  ooooooooooooooooooooo  ooooooooooooooooooo.",
".oooooooooooooooooo X ooooooooooooooooooo X ooooooooooooooooooo.",
".oooooooooooooooooo XX ooooooooooooooooo XX ooooooooooooooooooo.",
".oooooooooooooooooo XXX o            oo XXX ooooooooooooooooooo.",
".oooooooooooooooooo XXXX  OOOOOOOOOOO  XXXX ooooooooooooooooooo.",
".oooooooooooooooooo XX  OO+++++++++++OO XXX ooooooooooooooooooo.",
".oooooooooooooooooo XX O+++++++++++++++O XX ooooooooooooooooooo.",
".oooooooooooooooooo X O+++++++++++++++++O X ooooooooooooooooooo.",
".ooooooooooooooooooo O+++++++++++++++++++O oooooooooooooooooooo.",
".ooooooooooooooooooo O+++++++++++++++++++O oooooooooooooooooooo.",
".ooooooooooooooooooo O+++++++++++++++++++OO ooooooooooooooooooo.",
".ooooooooooooooooooo O+++++++ + ++ + +++++O ooooooooooooooooooo.",
".ooooooooooooooooooo O++++++++ ++++ ++++++O ooooooooooooooooooo.",
".ooooooooooooooooooo O+++++++ + ++ + +++++O ooooooooooooooooooo.",
".ooooooooooooooooooo O+++++XX++++++++XX+++O  oooooooooooooooooo.",
".ooooooooooooooooooo O+++++XX++++++++XX++++OO ooooooooooooooooo.",
".ooooooooooooooooooo O++++++++++++++++++++++O ooooooooooooooooo.",
".ooooooooooooooooooo O+++++++++    +++++++++O ooooooooooooooooo.",
".ooooooooooooooooooo O+++++++++++++++++++++OO ooooooooooooooooo.",
".ooooooooooooooo oo O+++++++++++++++++++++O   ooooooooooooooooo.",
".oooooooooooooo O  O+++++++++++++++++++++O oooooooooooooooooooo.",
".oooooooooooooooooooooooooooooooooooooooooooooooooooooooooooooo.",
".oooooooooooooooooooooooooooooooooooooooooooooooooooooooooooooo.",
".oooooooooooooooooooooooooooooooooooooooooooooooooooooooooooooo.",
".oooooooooooooooooooooooooooooooooooooooooooooooooooooooooooooo.",
".oooooooooooooooooooooooooooooooooooooooooooooooooooooooooooooo.",
".oooooooooooooooooooooooooooooooooooooooooooooooooooooooooooooo.",
".oooooooooooooooooooooooooooooooooooooooooooooooooooooooooooooo.",
".oooooooooooooooooooooooooooooooooooooooooooooooooooooooooooooo.",
".oooooooooooooooooooooooooooooooooooooooooooooooooooooooooooooo.",
".oooooooooooooooooooooooooooooooooooooooooooooooooooooooooooooo.",
".oooooooooooooooooooooooooooooooooooooooooooooooooooooooooooooo.",
".oooooooooooooooooooooooooooooooooooooooooooooooooooooooooooooo.",
".oooooooooooooooooooooooooooooooooooooooooooooooooooooooooooooo.",
".oooooooooooooooooooooooooooooooooooooooooooooooooooooooooooooo.",
".oooooooooooooooooooooooooooooooooooooooooooooooooooooooooooooo.",
".oooooooooooooooooooooooooooooooooooooooooooooooooooooooooooooo.",
".oooooooooooooooooooooooooooooooooooooooooooooooooooooooooooooo.",
".oooooooooooooooooooooooooooooooooooooooooooooooooooooooooooooo.",
"................................................................"
};
