/* XPM */
static char *imgonline_com_ua_resize_UasdM0vBWY2UO141710767381[] = {
/* columns rows colors chars-per-pixel */
"64 64 256 2 ",
"   c #30120F",
".  c #15390B",
"X  c #113309",
"o  c #252615",
"O  c #312B14",
"+  c #3A1F23",
"@  c #392828",
"#  c #2E2422",
"$  c #061F00",
"%  c #480407",
"&  c #58080C",
"*  c #5A140D",
"=  c #4B0214",
"-  c #480619",
";  c #580715",
":  c #4C151A",
">  c #5D1314",
",  c #5A141A",
"<  c #4B1206",
"1  c #64080B",
"2  c #77080C",
"3  c #7B120C",
"4  c #680914",
"5  c #780717",
"6  c #681317",
"7  c #781817",
"8  c #61130F",
"9  c #492A19",
"0  c #54291B",
"q  c #4C331A",
"w  c #53351B",
"e  c #68261A",
"r  c #591924",
"t  c #500E23",
"y  c #750424",
"u  c #6F1424",
"i  c #492926",
"p  c #582626",
"a  c #493426",
"s  c #583527",
"d  c #49393A",
"f  c #5A3737",
"g  c #572A35",
"h  c #692827",
"j  c #643A37",
"k  c #70322E",
"l  c #0D4409",
"z  c #0D5B0B",
"x  c #085907",
"c  c #135C0B",
"v  c #18580A",
"b  c #0B5C12",
"n  c #135D12",
"m  c #165811",
"M  c #134910",
"N  c #0F610E",
"B  c #3A5132",
"V  c #2C6526",
"C  c #4D483A",
"Z  c #55473D",
"A  c #484B30",
"S  c #6D4B32",
"D  c #76663C",
"F  c #6E3943",
"G  c #5A3D42",
"H  c #357A41",
"J  c #4B4943",
"K  c #524B43",
"L  c #564746",
"P  c #54554F",
"I  c #6A484A",
"U  c #6D4A51",
"Y  c #774C56",
"T  c #6C5756",
"R  c #7C535B",
"E  c #775659",
"W  c #724F4B",
"Q  c #756947",
"!  c #797758",
"~  c #776C4B",
"^  c #795B62",
"/  c #7D6766",
"(  c #7F6774",
")  c #87070D",
"_  c #97080A",
"`  c #9B090B",
"'  c #850B15",
"]  c #970A14",
"[  c #931318",
"{  c #8B1215",
"}  c #A40B0C",
"|  c #A80A15",
" . c #BB0C13",
".. c #BC0C19",
"X. c #B30A16",
"o. c #A71215",
"O. c #BF1116",
"+. c #B81219",
"@. c #B30F0D",
"#. c #95022C",
"$. c #9B012D",
"%. c #960325",
"&. c #8B0133",
"*. c #9C0134",
"=. c #970036",
"-. c #8D1227",
";. c #A30229",
":. c #B70C22",
">. c #A20134",
",. c #B31028",
"<. c #823B39",
"1. c #C40C14",
"2. c #C40E19",
"3. c #CB0C17",
"4. c #C41216",
"5. c #C3121C",
"6. c #CA131C",
"7. c #CA171A",
"8. c #CB0E13",
"9. c #C90E24",
"0. c #C91221",
"q. c #93503A",
"w. c #95384B",
"e. c #84555B",
"r. c #8B554B",
"t. c #846A48",
"y. c #867758",
"u. c #8B7450",
"i. c #885A64",
"p. c #915B6B",
"a. c #85666B",
"s. c #866A6D",
"d. c #896A6D",
"f. c #8A6467",
"g. c #93666B",
"h. c #8B6B71",
"j. c #876B71",
"k. c #926D75",
"l. c #9A6975",
"z. c #947377",
"x. c #A56C78",
"c. c #A5767C",
"v. c #AE696E",
"b. c #AF5452",
"n. c #C6736A",
"m. c #C36A55",
"M. c #178C3B",
"N. c #18953D",
"B. c #0E943B",
"V. c #218F3E",
"C. c #17A33E",
"Z. c #0CA33A",
"A. c #1B8E41",
"S. c #1B9242",
"D. c #189A43",
"F. c #249044",
"G. c #1BA343",
"H. c #18A545",
"J. c #14AB4C",
"K. c #25A347",
"L. c #958859",
"P. c #97905C",
"I. c #988D64",
"U. c #9B9364",
"Y. c #9D9571",
"T. c #A69670",
"R. c #ADA56B",
"E. c #ACA674",
"W. c #B4A574",
"Q. c #BAB378",
"!. c #A68B5E",
"~. c #D28C72",
"^. c #C4B77A",
"/. c #D2A57B",
"(. c #9C7782",
"). c #AA7982",
"_. c #B67987",
"`. c #B96C80",
"'. c #C67D86",
"]. c #928E8E",
"[. c #AA8489",
"{. c #B6848B",
"}. c #B98893",
"|. c #B79196",
" X c #AB9998",
".X c #B5AD82",
"XX c #A9A2A2",
"oX c #C68997",
"OX c #C9939C",
"+X c #D4979D",
"@X c #CE8A96",
"#X c #C7B682",
"$X c #D9AB81",
"%X c #CB96A3",
"&X c #D494A3",
"*X c #DC95A3",
"=X c #DD9BA6",
"-X c #DD9DAA",
";X c #D49BA7",
":X c #DB9CB2",
">X c #CD90A7",
",X c #E39BA6",
"<X c #E196AB",
"1X c #E49DAC",
"2X c #EA9CAC",
"3X c #E997A9",
"4X c #E59DB1",
"5X c #EA9EB1",
"6X c #EA97B1",
"7X c #F29CB3",
"8X c #F29DAB",
"9X c #DDA1AB",
"0X c #D7A6AA",
"qX c #DDA3B2",
"wX c #DAAAB6",
"eX c #D5ACAF",
"rX c #E4A1AD",
"tX c #EAA2AD",
"yX c #E1A6A6",
"uX c #E6A1B1",
"iX c #EBA2B3",
"pX c #E6A7B7",
"aX c #F2A6BA",
"sX c #E9B4BD",
"dX c #F3B6BD",
"fX c #DBCF8B",
"gX c #E9DB98",
"hX c #F5D998",
"jX c #ECD092",
"kX c #ECE599",
"lX c #F3E596",
"zX c #F4E49B",
"xX c #FBE49C",
"cX c #F4EA9C",
"vX c #FCEB9D",
"bX c #FAE695",
"nX c #F6E88F",
"mX c #F3E4A2",
"MX c #FCE4A3",
"NX c #FCEBA3",
"BX c #F9E9A7",
"VX c #F3F0A4",
"CX c #F5DFA5",
"ZX c #ECBBC6",
"AX c #FDBCCC",
"SX c #F7B8C8",
"DX c #FEBDD1",
"FX c #FDC3CD",
"GX c #F7C4C9",
"HX c #FEC3D3",
"JX c #F8C5D4",
"KX c #EDC6C6",
"LX c #FDFDFE",
"PX c #F7FBFA",
"IX c #E8ECE8",
"UX c #CECBCA",
/* pixels */
"P k.a.j.s.s.d.d.j.s.s.s.d.j.d.s.d.d.s.d.d.s.s.d.j.d.s.d.j.s.d.j.s.j.a.j.d.j./ @ @ a.^ @ J ].].].].].J ( h.s.h./ j.j.s.a.j.s.k.P ",
"k.<X1XuX1X-XrX1XuX1X5X4XuX1XrX4XuX1X4XrX1X4X5XuX1XuXrX4X2X1XuX1X5XuX1X4X1X-X;X`.c.%Xj.XXUXPXLXLXLXPX].[.<X2X1XrX4X2X1X1XrX1X-Xk.",
"a.1XuXuX1XrX5X2X1X1X1X1X1X1X1X2X1X1X1X1X1X1X1X1X1X1X2X1X1X1X1X1XrXrX1XrX1XrXuX-X&Xh.UXLXPXPXLXPXLXPXPXE ;X2X,XrXuXtXrX1XrXuX1Xa.",
"s.rXrX-X1X-X1X1X1X1X1X1X1X1X1X1X1X1X1XrX1X1X1X1X1X1X1X1X1X1X1X1X1X<X1X1X1X1X-X4X/ UXLXLXPXPXLXPXLXPXIX^ %X=XiX=X1X<X9X1X-X1XuXs.",
"d.4X1X1X2XtX3X1X1X,X1X1X2X<X1X1X1X1X,X<X<X,X<X1X2X1X1X1X1X1X1X1XtX,XtX2X1X1X<X1XY IXPXLXLXLXPXLXPXIXz.oX3X1X,XiX2X,XtXtX1X1X2Xd.",
"/ rXrXrX1X-X=XrX1X1X1XrX-XrXrX1XrXrX1X1XrXrXrX1X1X-X-XrXrX<X1XrX-X-X-X-X1XrX1XrXU IXPXLXLXLXLXPX].T oX1XtX1X,X=X1X=X-X<X1X9X9Xs.",
"j.2XuX1X,X-X1XuX1X1X1X1X1X1X,X1X1X1X1X1X1X,X1X1X1X1X1X1X,X1X1X1XrX1X1X1X1X1XrX,X(. XLXLXLXPXPX X_.-X-XuX-X-XrX1X4X1X1X,X1X5XrXj.",
"d.4X1X1X2XrX2X<X1X1X1X1X1X1X1X1X1X1X1X1X1X1X1X1X1X1X1X1X1X1X1X1X1X1X1XtX1X,XrX<X-Xc.XXPXLXPX Xv.1XuX-X1X,X2X,XrX2X1XrX2X1X1X4Xd.",
"d.uXrX,X1X9X2X1X9X3X,XqX,X2X=X2X1X1X1X1X1X-X1X1X1X1X1X1X1X1X1X1X1X,XrX1X1X1X1X1X2X&Xd P Q T A *X1X-XrX2X0X3X1X1X1X1X1X1X1X1XrXd.",
"d.1X1X1X1X1X1X1X2X1XrX=XrX2X0XuX2X1X1X1X1X1X1X2X1X1X1X1X1X1X1X1X1X1X1X1X2X1X1X1XyX_.f q.q.S Z _.rXuXuX*X1XrX,XrX1X1X1X1X1X<X1Xs.",
"s.4X<X1X2X1X1X1X1X=X1X5X4X7X4X2X5XuXrX4XtX1XuXtX1XtX5XuXrXtXuX4XuXuXtX1X5XrXuX4XpX3Xj q.q.b.j :X7X7X<XiX3X1X1X9X1X1X1X1X1X1XtXs.",
"d.rX1X1X1X-X1X1X,XrX2X;Xf.r.E R R R R R R R R R R R R R R R R R R R R R R R R R R Y O w q s   e.E r.E |.qX1X2X,X1X1X-X1X1X1X1Xj.",
"d.1X1X1X1X1X1X1X-X4X2Xg.' ) ] ] _ _ _ _ _ _ _ _ _ _ _ _ _ _ _ _ ` ` ` _ _ _ _ _ _ ] [ ] ` ` { ] _ ] ] k 1XuX2X9X1X1X,X2X1X1X4Xs.",
"d.4X1X1X1X-X,XrX1X3XOXh X.0.3.2.5.5.5.5.5.2.5.5.5.5.5.5.5.5.5.2.2.5.5.5...0.5.5.2.0. .8.3.6.4.4.6.5.2.5 v.iX4X-X1X1X-X1X1X1X1Xs.",
"d.1X1X1X1X1X1X1X1X2Xl.3  .4.1...O.O.4.......O.O.O.O...5.O.O.5.....O.O. ...5.O.O.9.2.@.4.5.1.2.5. . .5.o.j =XiX1X1X1X-X1X1X1XuXd.",
"j.4X1X1X1X1X1X4X-X*Xh :.4.+.O.9.2.2.5.4.4.5.2.4.2.2.2.2.2.5.2.2.5.2.2.4.5.4.4.2.2.4.5.5.+.3.5.O.2.5.2.9.6 c.5X2X1X1X1X1X1X1X4Xd.",
"d.rX1X,X1X;XiX3X4Xf.[ 9. .8.5.2.5.2.6.2.6.2.2.2.5. .5.3.2.5...3.5.2.5.9...9.2.3.9.2.9...0.9.2.2.3.6.2.5.X.f 2X4X=X2X,X2XrX=XiXs.",
"s.uX1X1XtXrX=XtX+XY 1 ` ] } | | } } _ } } ` } ` } } o.} ` ` o.} ` o.} } ` } ` | ` } } ] _ } } } o.] o.| { 0 '.-XrX2XtX,X1X-X1Xd.",
"a.2X1XrX2XrX,X}.^ T e.e.Z i I I U @ U ^ i.G d U U U @ Y ^ ^ G i U U U # E E i.d d Y U i L E ^ U # U I I @ I ^ (.9X1X1X,XrXuX,Xd.",
"d.1X1X9X1X,XtXf.|.HXHXHX}.l.6XuX%Xe.SXDXHX).x.7X5XoXe.SXDXHXc.).uX5XoXi.DXHXSX(.).1X4Xi.;XHXFX;Xp.5XiX*X/ qXsXE OXrX-X2X1XuX1Xa.",
"d.1X1X9X,X2XoXR AXAXAXZXU ;X1XrXf.{.AXFXsXT ;X2XiXi.|.AXFXsXY =X1XrXe.OXJXAXsXR <XuX_.p.JXHXGXE _.iX2X).g.AXHX).l.pX9X2X,X1XuXs.",
"d.1X,XrX1XrXp.|.AXHXHXl.).2XiX@XE dXAXFXh.c.0XtX}.e.KXAXFXh.c.rX9XoXi.dXGXHXe.T.3X;XR eXFXFX|.a.iX<X=XR wXDXJXeXF OXrX1X<XrX1Xj.",
"d.rX1X1XrX}.p.SXGXFXeXe.OX1X,Xg.[.HXDXwXi.&X2X-Xg.}.HXHXqXe.;X<X9Xg.|.AXDXqXe.-XiXc.l.GXAXSXi.}.tX1Xx.c.FXFXsXi.e.l.9X1X1XrX-Xs.",
"a.rXrX1XrXf.}.HXGXAX[.l.1XqX>X^ ZXAXAX).k.2XiXoXE ZXAXGXc.x.rX4XoXe.ZXHXAXk.).2X-X^ ;XHXAXOXp.<X2X-XE 0XHXAX%Xi.OXe.&X1X*XrXuXs.",
"s.2X1X9X&XU AXAXFXdXY +X3X4Xl.(.FXGXsXU 1X=X2Xa.{.HXZXSXR -X4X6Xf.|.HXDXwXY 0X2X_.p.JXAXJXE @X2X1X_.j.FXSXSXi.oX4Xi.c.1X1XrX1Xj.",
"j.2X1X=X*XU AXAXHX(.l.pXqX%XR DXAXFX(.).=XrX@Xi.SXZXFXk.v.2XiXoXi.dXFXGXk._.1X1XE eXGXFXoXi.0X,X6XT pXHXAX|.f.9XpXi.x.uXrX-X1Xj.",
"s.tX1XrX+XU HXSXaXI OX2XuXf.c.FXJXpXU oX6XqX^ [.DXAX0XI OXtX+XR ).GXJXrXI &XrXc.E HXHXZX^ _.uXiXc./ SXHXKXE _.5XuXi.c.2X1X<X2Xj.",
"a.1X,XrX=Xf.OXKXc.; e.-XoXh h %XAXv.* e.*XoXh h ;XSXd.6 i.:XoXh k :XZXg.6 j.%Xw.6 ).JXOX, <.OX>XF 5 }.AX}.6 <.&X%Xe.oX1X-XpX2Xa.",
"j.pX2X*XrX%Xf.p { 5.| , e X.X.7 g { 2.[ p u o.5.h s [ 9.[ r 7 :.+.u f o.2.%.0 ] 9.' h u :.| e r o.5.7 0 7 :.:.: j oX-X=XrX<XtXs.",
"s.1X,XtXrXrXOXr @.4.X.| | X.....@. .@.X.}  .@.4.1.4.X.] ..+.| X... .} :.....@.7.@.X.} X... .X.X.+.} @.:.:.+.4.3 l.rXpX-X1X1X1Xj.",
"a.uXiX+XrX2XoXr 7.;.k I g i g + f g + j : g f ;.9.:.& = ; %   ; = %   = = ' 3...F j f : i @ F + g j i g j [ 9.' h.<X2X1X2XuX1Xa.",
"h.4XrX,XrX2X+X, 4.2 +XGXe.oX{.f.AXs.).@X^ KX0Xh +.2 y u t : r - t t t : %.& :.3 }.JXh._.x.).DX^ '.+XU SXwXe +.' l.7X1XuX,X1XrXj.",
"s.rX2X3X1X0XOXu @.W HX%X^ ;Xi.%XeX^ :Xp.}.sX/ i.] 5 = D fXfXfXfXfXjXfXW., = | F SX0X^ OXY ZX[.p.uXl.).dX( p.5 { g.5X1X1XrX-XuXf.",
"s.2X6X-X=XtXoXr 4 %XAXg.}.>Xi.DXl.`.%Xe.AX).x.>Xh 4 = t.MXMXBXvXmXkXvX.X- ; 3 |.AXk._.x.[.SX( >X>Xi.AX[.p.&Xk 1 k.5X2XrX*X1XrXd.",
"j.uX,X9X9X2X+X, 7 {.;Xd oXY k.eXd oXi.k.wXZ [.oX7 4 - y.bXvXhXhXxXBXxX#X= ; ' Y.pXd oXR g.pXd '.g.R ZXL ).OXh 2 l.4X*XrXtX1X-Xj.",
"j.1X1XtX1X5X+Xr 6.u @ Z t.L.T.Q .Xu.y.Y.Q !   r X.5 = t.jXfXjXjXjXjXzX.X- ; ..-.a A ! y.Y.~ .X~ y.T.t.!   0 :.) l.iXuX-X2X1X4Xj.",
"a.rX1X1X4X<X;X: 1.2 q y.CXhXmXgXhXgXzXcXmXW.q > 8.' = r.n.n.~./.m.m.hX#X- ; 6.5 9 t.jXlXxXgXxXzXgXMXhX.Xa , 9.3 l.2X4X0X+XtX<Xd.",
"j.1X,X=X5X7X).o   < q t.mXNXkXbXzXxXlXzXNXW.q * 4.2 = ~ b.b.n.@X~.~.hX#X- = 1.) 9 Q mXlXbXkXlXnXbXxXbXQ.0 : < $ W tX-XuXrXtX,Xh.",
"s.,X,XrX;X5XA M b X q t.BXkXkXlXmXmXkXhXMXE.i , 0.5 = Q n.n.~.n.$X$XhXQ.- ; 4.3 i Q MXkXMXmXBXhXlXmXzXQ.s   v b O |.qX6X1X,XrXd.",
"a.tX,XtX9Xp.. z v M O ~ xXcXMXCXmXxXlXvXvXR.q * 1.2 ; Q hXhXgXhXhXjXnXQ.- ; 2.' 9 D BXlXxXkXzXvXMXzXBX^.O . x v b Z OX6X2X1X9Xd.",
"/ tX,X<X=XO b N c N X ~ vXMXNXcXlXvXzXvXNXW.s * 1.2 ; ~ BXkXlXMXCXmXBXQ.- ; ..' 0 Q NXNXcXBXBXxXMXVXVX^.$ c N N N X x.tX2X1XrXa.",
"d.tX9XqX&XO b N N n M B L.U.L.L.I.L.P.P.L.Q 9 , 9.' t Q xXxXbXBXbXxXnX^.= ; 5.' i a P.L.L.L.L.L.L.L.L.D . n z n N l z.2XtX,XuXs.",
"a.iX-X4XE M n N c c M A R.R.W.W.W.T.W.W.R.~ a < 6.1 = t.NXBXzXBXcXNXMX#X; = 4.3 a C W.R.R.E.R.R.W.W.W.! . n m v c l A *XuX-X2Xd.",
"j.-XaX_.. z c n N n c . ^.vXNXxXNXvXmXVXNXE.s * 3.' ; f y.y.! y.! y.y.r., = O.) 0 ~ NXNXvXBXBXvXcXvXlXA x x c c z n l W qX4X2Xh.",
"k.rX-Xc.. x x N c n z X ^.bXxXxXlXxXxXlXvXW.i > @.3 y y 5 y y 5 y y y 5 &.; O.' 0 Q zXMXlXhXBXxXlXxXMXB v z z b z z x W qXiX*Xj.",
"f.yXiX{.o z N x z b b . ^.BXmXmXkXzXxXkXvXQ.a * 5.2 4 h 6 *.;.%.*.;.*.*.&.= ..' q Q zXBXcXmXmXlXmXBXjXA l m z x c b l W uX2XtXs.",
"h.*X,X<Xa.. m n z x X D BXCXlXkXcXlXvXlXcXW.q < 9.5 u 6 5 *.>.=.$.;.$.;.%.= ..' 9 Q cXvXlXlXcXlXhXBXxXR.$ m m x c M C OXrX1X5Xa.",
"j.rX-X6X4Xt.M x b l o u.vXBXvXvXNXxXNXNXNXW.p > 1.2 y $.*.=.#.#.&.>.&.=.#.% 5.) 0 Q mXBXvXMXBXxXbXcXNX#XO X m z M B >X5X,X1X4Xj.",
"( rX=X9X1X=X^ o o   k S Y.U.U.!.I.U.I.I.Y.y.k * 8.2 4 =.*.%.$.%.%.=.%.%.=.& 2.3 q D I.U.U.U.U.I.!.P.U.y.k     o a *X1X2XrX9X2Xs.",
"l.-X4X<X7X*X_.j e & w S w 9 p q w 9 s w 9 s S 8 4.2 y =.>.*.*.*.*.=.*.$.&.= ..] h j s p 9 9 w w q s q w S < 8 S e.OX<X2X1X<XrXs.",
"f.yXtX1X5Xc.9 S S < % 8 1 6 > , 1 6 1 1 6 1 2 [ 8.2 4 *.;.#.$.*.$.*.;.$.&.% 4...3 4 1 1 4 4 4 4 6 1 1 8 *   S S j I yXrX9XrX9Xs.",
"/ tX7X4X4X;XS r.r.8 +.5. .8.4.8.4.2.6.6.8.1.8.8...5 5 *.*.$.$.*.$.*.$.$.#.& ..2.8.4.4.7.7.4.1.1.9.6.6.3.4.{ w b.f {.1X2XtXiXiXj.",
"P U E T P T : 9 @   > 8 > 8 4 4 > 8 8 ; ; , 6 8 >     - - - = - -   - - =   & 8 * * & 8 > > 8 > & 1 * * 8 :   a   W R U W T T L ",
"B F.M.M.N.M.F.N.V.N.M.M.N.B.M.D.N.N.M.A.S.A.A.S.V.A.A.S.A.S.V.M.N.N.F.F.F.B.S.N.N.S.S.A.S.A.A.M.S.D.N.N.M.S.N.B.N.M.M.B.D.M.S.B ",
"H D.J.K.C.H.G.Z.N.N.K.K.H.H.H.C.N.H.G.C.G.C.C.C.C.G.H.H.G.G.G.H.C.J.C.C.G.H.H.N.H.G.K.G.H.C.H.H.G.D.N.K.H.N.G.C.H.J.H.J.D.K.D.H ",
"J J K J Z K J L C K J C K C Z L L K K J K K K C Z Z K K J K K K K K Z J Z K J K K K J K K K K K J K Z Z J P K K Z C K K C C P J ",
"d.4X1X1X1XrX1X<XrXrX1X1X1X1X1X1X1X1X1X1X1X1X1X1X1X1X1X1X1X1X1X1X1X1X1X1X1X1X1X1X1X1X1X1X1X1X1X1X1X1X1X1X1X1X1X1X1X1XrX1X1X2X1Xa.",
"d.1X1X,X3X1X1X5XrXrX1X1X1X1X1X1X1X1X1X1X1X1X1X1X1X1X1X1X1X1X1X1X1X1X,X1X1X1X1X1X1X1X1X1X1X1X1X1X1X1X1X1X1X1X1X1X5X1X,X1X1X2X1Xj.",
"a.9XrX1X1X-X=XrXrX1XrXrX1X1XrX1XrX,X1X1XrX1X1X1X1X1X1X1X1X-X-XrX1X1X-X1X1X1XrXrX1X1XrX1X1X1X1X1X1X1X1X1X1X9X1X1XrX=X-X1X-XrX-Xa.",
"s.4X1X1X2XrX,X2X,X2X,X<X1X1X,X1X1X<X1X1X1X1X,X1X1X,X1X1X1X1X2X2X1X1X1X1X1X,X1X1X,X1X1X1X1X1X,X1X,X1X1X,X1X1X1X1X1X1X2X2X1X1XuXs.",
"d.1X1X-X<XrX,X1X1X1X1X1X1X1X1X1X1X1X1X1X1X1X1X1X1X1X1X1X1X1X1X1X1X1X1X1X1XrX1X1X1X1X1X1X1X1X1X1X1X1X1X1X1X1X1X1X1X<XrX<X-X1XrXd.",
"s.1XrXrX1X9XrX4X1X1X1X1X1X1X1X1X1X1X1X1X1X1X1X1X1X1X1X1X1X1X1X1X1X1X1X1X<X1X1X1X1X1X1X1X1X1X1X1X1X1X1X1X1X1X1X1XrX1X9X1XrXrX1Xa.",
"k.<X1XuX1X-X2X1XuX4X1X5XrX4X1XrX4XuXuX1XuX5X4X1XrX4XrX4XuX1X4X1X4XrXrX5X1X4X1XuX1X4XuX1XuX1X4X4XrX4XrX4XrX5X1X4X1X1X-X1XuX1X<Xk.",
"P k.a.j.a.s.j.s.d.s.j.d.d.s.d.s.d.s.d.j.d.s.s.d.d.d.s.s.s.d.d.j.d.d.d.j.d.s.d.d.j.d.d.d.j.d.s.d.d.d.s.d.j.d.d.s.d.h.s.s.j.a.z.P "
};
