/* XPM */
static char *imgonline_com_ua_resize_QnZgpmjzMQNxu45b1710767381[] = {
/* columns rows colors chars-per-pixel */
"64 64 256 2 ",
"   c #2A1A0E",
".  c #35100E",
"X  c #15390B",
"o  c #113309",
"O  c #252615",
"+  c #312B14",
"@  c #3A1F23",
"#  c #392828",
"$  c #2E2422",
"%  c #061F00",
"&  c #5B0C0B",
"*  c #5A140D",
"=  c #5C0D13",
"-  c #5D1314",
";  c #59151A",
":  c #4B110C",
">  c #630B0C",
",  c #65070A",
"<  c #770A0D",
"1  c #7A090B",
"2  c #6B110B",
"3  c #660C13",
"4  c #780915",
"5  c #681316",
"6  c #7A1614",
"7  c #7B120C",
"8  c #492A19",
"9  c #53291B",
"0  c #4C331A",
"q  c #57341D",
"w  c #4E340F",
"e  c #642719",
"r  c #561A22",
"t  c #731924",
"y  c #492926",
"u  c #5B2924",
"i  c #493426",
"p  c #583527",
"a  c #49393A",
"s  c #5A3737",
"d  c #572A35",
"f  c #672726",
"g  c #673929",
"h  c #643A36",
"j  c #752E2F",
"k  c #0D4409",
"l  c #0D5B0B",
"z  c #085907",
"x  c #135C0B",
"c  c #18580A",
"v  c #0B5C12",
"b  c #135D12",
"n  c #165811",
"m  c #134910",
"M  c #0F610E",
"N  c #3A5132",
"B  c #2C6526",
"V  c #4D483A",
"C  c #55473C",
"Z  c #4B4C2F",
"A  c #68472B",
"S  c #684837",
"D  c #734F35",
"F  c #72673D",
"G  c #6E3A44",
"H  c #5A3D42",
"J  c #357A41",
"K  c #4A4A43",
"L  c #524B43",
"P  c #574746",
"I  c #565855",
"U  c #554E4A",
"Y  c #6A484B",
"T  c #764848",
"R  c #6D4A51",
"E  c #774C56",
"W  c #6C5756",
"Q  c #7C535B",
"!  c #775659",
"~  c #6D554D",
"^  c #6E6944",
"/  c #756946",
"(  c #7A7548",
")  c #7A7655",
"_  c #7D645A",
"`  c #795B62",
"'  c #7C6767",
"]  c #7F6774",
"[  c #89060B",
"{  c #97080A",
"}  c #9D0A0A",
"|  c #98060B",
" . c #850B15",
".. c #970914",
"X. c #951417",
"o. c #8B1414",
"O. c #A20B0D",
"+. c #A7080A",
"@. c #A80A15",
"#. c #BA0C13",
"$. c #B60A17",
"%. c #A71214",
"&. c #BF1116",
"*. c #BC131A",
"=. c #B31214",
"-. c #B40D0E",
";. c #951322",
":. c #B70C22",
">. c #AE0F25",
",. c #823435",
"<. c #C40C14",
"1. c #C40E19",
"2. c #CA0E1B",
"3. c #CC0C15",
"4. c #C41215",
"5. c #C3121C",
"6. c #CA131C",
"7. c #C91116",
"8. c #CF0C17",
"9. c #CA1221",
"0. c #CB0C22",
"q. c #93503A",
"w. c #803844",
"e. c #84555B",
"r. c #8F534E",
"t. c #877756",
"y. c #866E4A",
"u. c #845B62",
"i. c #8A5A65",
"p. c #905B69",
"a. c #85666B",
"s. c #866A6D",
"d. c #886A6E",
"f. c #8A6466",
"g. c #93666C",
"h. c #856C71",
"j. c #8A6B71",
"k. c #8C6774",
"l. c #926D75",
"z. c #9A6975",
"x. c #947377",
"c. c #A56C78",
"v. c #A5757C",
"b. c #AA7071",
"n. c #A66047",
"m. c #168C3B",
"M. c #17953D",
"N. c #0E943B",
"B. c #21933F",
"V. c #16A33D",
"C. c #0CA33A",
"Z. c #178E41",
"A. c #1B9243",
"S. c #199A44",
"D. c #0E9946",
"F. c #219743",
"G. c #288D4A",
"H. c #1CA344",
"J. c #19A546",
"K. c #12A948",
"L. c #24A246",
"P. c #958859",
"I. c #97905C",
"U. c #988D64",
"Y. c #9B9364",
"T. c #9D9571",
"R. c #A69670",
"E. c #AEA86E",
"W. c #ACA46B",
"Q. c #ACA874",
"!. c #B3A473",
"~. c #B4A876",
"^. c #B8B276",
"/. c #A68B5E",
"(. c #C4B67A",
"). c #9C7783",
"_. c #AA7A82",
"`. c #B67987",
"'. c #C67D86",
"]. c #928E8E",
"[. c #AA848A",
"{. c #B7848B",
"}. c #B98993",
"|. c #B39598",
" X c #B1AB82",
".X c #A9A2A2",
"XX c #C68997",
"oX c #C9939C",
"OX c #D6979D",
"+X c #CE8A96",
"@X c #CD94A2",
"#X c #C998A4",
"$X c #D494A3",
"%X c #DB95A3",
"&X c #DD9BA6",
"*X c #DD9DAA",
"=X c #D49BA8",
"-X c #DD9CB1",
";X c #CE8CA4",
":X c #E39AA6",
">X c #E196AB",
",X c #E49DAC",
"<X c #EA9CAC",
"1X c #E997A9",
"2X c #E59DB1",
"3X c #EA9DB1",
"4X c #EA97B1",
"5X c #F29CB3",
"6X c #F39DAA",
"7X c #DDA1AB",
"8X c #D7A6AA",
"9X c #DDA3B2",
"0X c #D9AAB4",
"qX c #D5ACAF",
"wX c #E4A1AD",
"eX c #EAA2AD",
"rX c #E4A8A9",
"tX c #E6A1B1",
"yX c #EBA2B3",
"uX c #E5A6B6",
"iX c #F2A6BA",
"pX c #E9B4BD",
"aX c #F1B8BE",
"sX c #CEBB83",
"dX c #EADB9A",
"fX c #E8DA95",
"gX c #F7DD99",
"hX c #E6DA8F",
"jX c #EEE59B",
"kX c #ECE697",
"lX c #F3E596",
"zX c #F5E49C",
"xX c #FAE49C",
"cX c #F4EB9B",
"vX c #FCEB9C",
"bX c #F9E595",
"nX c #F7DFA4",
"mX c #F4E4A1",
"MX c #FBE4A3",
"NX c #FBEAA3",
"BX c #FAE9A7",
"VX c #F2EAA2",
"CX c #D9DBA9",
"ZX c #EBBBC5",
"AX c #FDBCCC",
"SX c #F8B9C7",
"DX c #FCBCD1",
"FX c #CECBCA",
"GX c #FEC3CD",
"HX c #F6C4C9",
"JX c #FEC3D2",
"KX c #F9C6D4",
"LX c #E8C1C2",
"PX c #FDFDFE",
"IX c #F7FBFA",
"UX c #E8ECE8",
/* pixels */
"I l.a.j.s.s.j.h.s.s.d.j.s.d.s.d.d.s.d.j.s.s.s.s.d.d.d.j.d.d.s.d.s.j.a.j.s.h.' # # a.` # K ].].].].].K ] j.a.j.' h.j.s.s.j.a.j.I ",
"j.>X,XtX,X7X,X,XwX2XwX2X,X2XtX2XwX,X2X,X,XtXtX3X2XwX2X,X2X,X2XwX2XyX,X2X,X*X%X_.v.@Xh..XFXIXPXPXPXIX].[.,X<X,X,X2X,X7X,XtX,X&Xl.",
"a.,XtXwX,XwX3X,X,X,X,X,X,X,X,X,X,X,X,X,X,X,X,X,X,X,X,X,X,X,X,X,X,X,X,XtX2X,X3X*X=Xj.FXPXIXPXPXIXPXIXIXW =X<X:XwXyX2XwX,XwXtX2Xa.",
"s.wX,X,X:X,X,X,X,X<X,X,X,X,X,X,X,X,X,X,X,X,X,X,X,X,X,X,X,X,X,X,X,X*X,X,X,X,X,X2X` FXPXPXIXIXPXIXPXIXUX` #X&XyX&X,X:X,X:X*X,XtXd.",
"d.tX,X,XeX<X>X<X,X:X,X,X,X,X,X:X,X:X,X,X,X:X,X,X,X,X,X,X:X,X:X,XeX,XeX,X,X,X:X,XE UXIXPXPXPXIXPXIXUXx.XX>X1X1XeX<X:X<X<X,X,X<Xd.",
"s.*X7X,X,X*X&XwX,X,X,XwX,X,X*X,X,XwX,X,X,X*X,X,X,X,X7X,X,X,XwX,X*X&X*X:X*XwXwX,XR UXPXPXPXPXIXIX].! XX,XeXwX7X&XwX&X*X,X,X7X7Xs.",
"h.2X3X,X:X,X,X<X,X,X,X,X,X,X,X,X,X,X,X,X,X,X,X,X,X,X,X,X,X,X,X,XwX,X,X,X,X,X,X,Xx..XPXPXIXIXIX.X`.*X*XtX&X7XwX,X<X,X,X,X,X,XwXj.",
"d.,XwX,X<XwX,X,X,X,X,X,X,X,X,X,X,X,X,X,X,X,X,X,X,X,X,X,X,X,X,X,X,X,X,X,X,X,X,X:X,Xv..XIXPXIX.Xc.,XtX*X,X:X<X:X<X,X2XwX<X,X2X,Xs.",
"d.,X,X,X,X*X,X,X7X1X:X8X<X<X&X<X,X,X,X,X,X,X,X,X:X,X,X,X,X,X,X,X,X,X,XwX,X,X,X:X<XOXa I ! ^ p >XwX&X,X<X8X1X,X,X,X,X*X,X,X,X,Xd.",
"s.,X,X,X,X,X,X,X,X<XwX&XwX<X8XtX,X,X:X,X,X,X,X,X,X,X,X,X,X,X,X,X,X,X,X:X,X,X,X,XwX`.s q.q.A C `.wXtXtX$X:XwX:X7X,X,X,X<X,X,X,Xs.",
"d.2X,X,X<X:X,X,X,X&X<X3XtX4X2X>X2XyXtXtXwXeX2XeXwXyX2XyXwXeXtX2X2XyXeX,XyX2XtX2XtX>Xg q.n.r.h -X5X5X,XiX<X,X1X7X,X,X,X,X,X,X3Xs.",
"d.wX,X,X,X7X,X,X:XwX<X=Xf.r.! e.Q Q Q Q Q Q Q Q Q Q Q Q Q Q Q Q Q Q Q Q Q Q Q Q Q e.+ i 0 9 $ e.~ r.! }.9X,X<XwX,X,X*X,X,X,XwXs.",
"d.3X,X,X<X,X,X,X&X,X<Xg. .[ ....| | { | { { { { { { { { | { { | { { { { { { { { | ..X.....| o.| ......j ,X2X4X7X,X,X:X<X,X,X,Xj.",
"h.,X,X,X,X*X,X,X,X,XOXf @.9.8.2.*.9.5.5.9.5.5.5.1.5.5.5.5.5.5.5.5.5.5.5.5.5.5.1.1.9.#.1.6.8.4.4.6.5.5.4 b.yX<X*X,X,X*X,X,X,X,Xs.",
"s.2X,X,X,X,X,X,X,X3Xz. .&.7.1.*.#.4.*.4.*.#.*.#.&.#.*.1.&.4.#.1.4.&.&.&.*.#.4.*.9.1.-.4.4.<.1.4.#.#.5.%.h &XyX,X,X,X*X,X,X,X2Xd.",
"s.,X,X,X,X,X,X,X*X%Xu :.4.=.#.0.1.1.1.1.4.1.1.1.4.1.1.1.1.1.1.1.1.1.1.1.1.1.1.1.1.4.5.4.*.2.5.&.2.5.1.0.5 v.<XeX,X,X,X,X,X,X2Xs.",
"d.tX,X,X,X=XyX1X2Xf.o.0.1.<.*.1.1.1.6.<.2.1.2.&.2.&.1.2.1.*.*.2.5.1.1.9.*.1.1.6.0.2.9.:.9.2.1.1.1.6.1.4.$.s <X-X:X,X:XeX,X&XyXa.",
"a.tX:X,X<XrX&XeX@XT , | %.O.@.@.O.O.{ %.O.} O.| O.O.@.O.O.| @.| { @.O.} } O.O.O.{ +...%.{ O.O.%.%.....@. .9 '.,XwX<XeX:XwX&X,Xj.",
"a.eX,XwX<XwX:XXX` ` e.e.C # R Y R # R ` ` H a R R R # E Q ` H y E R R # E ! i.a a R G y P ! ` R $ R R T # Y u.).wX,X:X:X,XwX,Xs.",
"d.,X,X7X:X:XuXu.|.JXGXKX{.z.5X<X@Xe.SXDXDX`.c.5X3XoXe.SXJXJX_._.yXtX+Xu.DXKXAXx._.3X2Xi.=XKXAX=Xp.5XyX%X' 8XpX! oXwX*X<X,XtX,Xa.",
"d.,X,XwX:X<XXX! AXAXAXZXR =X,XwXf.{.AXGXZX! =X1XyXe.|.AXGXpXE $X,XwXe.oXHXAXpX! >XtX`.p.KXJXSX! {.<X,X`.a.AXJX_.z.uX7X,X,X*XtXd.",
"d.,X*X*X<XwXp.|.AXGXDXc._.,XyX+X! aXAXGXl.x.8X6X}.e.LXGXGXl.v.wX7XXXe.aXHXJXe.[.>X7XQ qXGXJX|.a.yX&X=XQ 0XDXKX0XG oXwX,X,X,X,Xs.",
"d.wX,X,XeX}.p.SXHXGXqXe.OX*X:Xg.[.JXJX0Xu.=X,X,Xg.}.JXGX7Xe.=X,X,Xg.|.AXJX9Xe.*XyXv.z.HXAXSXe.}.eXwXb.v.GXGXaXu.e.z.*X,X,X,X,Xs.",
"a.wXwX,XtXf.}.JXGXAX[.z.,X9X;X` ZXAXSX_.z.,XyXXXQ ZXAXHX).c.wX2XXXu.ZXJXAXz._.,X*Xu.#XJXAXoXp.,X4X*X! 9XGXAX#Xu.oXe.$X,X&XwXuXa.",
"s.<X,X7X$XR AXAXGXaXQ OX:X2Xz.).GXHXpX~ :X&X6Xs.`.JXGXrXT &X3X,Xa.}.GXGXuX! 9X&X`.g.KXAXDX! XX,XwX`.j.GXSXSXu.XX,Xp.c.,X,XwX,Xh.",
"s.<X,X&X%XR AXAXGX).z.7XtX@XQ DXSXJX)._.&XrX+X` AXAXKX).`.7XuXXX` SXAXAXk._.,X4X! qXHXGXXXi.8X:X4XW uXKXAX|.g.*XyXu.v.yXwX*X,Xj.",
"h.eX,XwX$XR JXHXiXY oX<XtXf.x.KXKXuXG ;X4X-X` [.GXGX0XR ;XyX%Xu.).JXKXqXY OX6X_.W KXKXHX` {.tXiXv.' SXAXZXQ `.6X9Xi._.<X&X&X,Xd.",
"a.,X:XwX%Xd.XXHXv.= e.-XXXf j #XAXb.* e.>XXXf f &XZXz.= r.-XXXf ,.9XDXi.= p.@XT 5 _.DXXX; ,.oX;XG 4 }.JX}.3 w.;X@Xe.}.<X&XiX,Xa.",
"j.yXwXOXeX$Xp.u o.9.@.; e $.*.6 u  .2.o.u t >.1.f f o.3.X.; 5 =.#.e j X.<.;.t X.0. .f t :.%.5 r @.9.6 q 6 :.:.8 h XX*X&XyX>XyXs.",
"s.*X:XeXtXwXoXr -.4.$.@.$.$.:.:.$.*.-.$.O.$.%.#.#.<.#.%.@.-.$.@.@.@.@.=.%.<.-.2.-.$.@.=.&.#.=.-.=.O.-.:.$.*.*.1 z.tXuX*X,X,X&Xj.",
"s.tXyX%X7XeXXXr 5.;.j Y d y d : s d # h r d s >.1.X.,.S S A A S S A A j A o.*.@.j H d r y # G @ d h y d H X.0. .k.,X,X,X,X2X,Xs.",
"k.wX,X:X7X1XOX; 4.< +XGXe.{.}.a.AXa.v.+X` ZX8Xe 0.2 W.xXlXxXkXkXzXkXlXMXCXe *. .{.KXk.`._.).DXQ +X;XR ZXpXe =.[ z.3X,X<X,X,XtXj.",
"s.wX<X4XtX*XoXt $.T DX@X_ =Xi.@X0XQ -Xk.}.pX' u.;.< Q.vXgXmXxXzXlXzXmXzXdXe @.G HX8Xu.XXQ ZX[.p.yXz._.aXk.i. . .z.3X<X,XwX*XtXa.",
"s.<X<X&X=X<XXXr 5 #XDXg.`.;Xi.DXz.`.oXe.SX`.c.;Xf > !.vXzXjXxXlXlXBXMXlXdXu  .}.DXl.`.z.[.SXa.XX$Xu.AX[.k.$Xj , l.2XwX,X%X,XwXd.",
"h.3X:X7XwX<XOX; t {.$Xa oXE l.qXs }.` z.pXa _.XXt 2 !.vXzXVXgXzXlXmXMXcXhXq o.v.uXa XXQ d.iXa }.g.` ZXH ).XXj < z.yX*X,X<X<X&Xh.",
"k.,X<XeX*XeXoXr 7.t # V y.U.R.^  Xt.t.T./ )   u =.< E.xXzXVXzXzXxXgXjXcXhXg <.t y Z ) t.R./  X_ t.R.y.)   u $.[ g.3X2X&X<X<X2Xh.",
"] wX:X<X2X>X$Xr <.1 9 t.nXgXmXdXgXhXMXVXVX!.0 - 0.1 E.NXzXmXxXzXxXmXkXlXfXe 8.4 8 F dXgXxXfXxXbXfXMXgX Xp ; 5.< c.>XtX*X%XrX,Xs.",
"a.wX:X&XuX5X_.O   : q F MXNXkXlXgXxXlXlXMX!.0 = 0.< !.VXkXxXxXzXcXlXxXkXdXf =. .8 / BXlXxXkXlXbXxXxXxX^.0 : * % ~ tX*XtXwXwX:Xk.",
"h.:X:XrX$X3XZ m v % i y.BXjXjXzXmXmXzXgXBX~.y ; 4.2 ~.NXjXcXlXVXkXjXxXcXdXf =.1 y / MXjXMXmXBXdXlXzXzX^.p   m v + |.*X3X,X:XwXs.",
"a.eX:XeXwXp.m M c k + y.BXlXzXMXmXcXlXxXvXE.w * 8.2 !.MXlXzXlXmXxXNXgXlXdXu 8. .9 F BXlXbXjXzXvXxXmXBX(.+ X z c n C oX3X<X,X,Xs.",
"' eX:X%X*X+ v M x v o ( vXMXNXcXlXvXzXVXNX~.p & 2.< E.BXzXlXmXzXzXzXmXlXdXf <. .8 ( vXNXcXBXBXxXNXVXNX(.% x l M M o v.<X<X:XwXs.",
"d.<X,X-X$X+ x v M b m Z P.U.P.P.U.P.I.P.I.F 8 ; 7.< E.BXzXxXzXxXzXzXmXlXdX9 <. .u # I.P.P.P.P.P.P.P.I.F X n l b l k x.,XeX*XyXa.",
"s.yX&X*X! m b b M x k V W.E.E.!.~.R.~.E.W.( i : 2.< W.NXxXlXzXmXzXzXmXlXdXu <. .y V ^.W.E.E.Q.W.!.!.~.) X b b x x k Z %XyX*X,Xs.",
"h.*XSX`.X l l b x c x m (.vXNXxXNXxXBXNXvX!.p * 1.< E.NXmXzXzXxXzXxXmXlXdX9 <. .9 ( NXBXcXMXBXvXcXxXkXZ z z c x l b k T 9X2X<Xj.",
"j.,X&Xv.X z M x x v l o sXgXzXlXbXbXzXzXNX!.y - 2.< E.NXMXlXmXcXzXzXmXlXdXu <. .9 / zXMXlXgXMXxXlXxXmXN l x l b l l z ~ 9XyX%Xs.",
"f.rXyX{.o n M z l v v X (.BXmXVXkXzXmXlXvX~.p * 2.< E.BXxXlXzXmXzXzXzXcXdXu 1.1 9 ^ zXBXcXmXmXlXmXBXfXZ k n l z x v k T tX<XeXh.",
"j.%X<X&Xu.m c n x l o F mXMXzXlXVXlXvXlXlX^.0 : 7.< E.MXmXlXzXzXzXzXmXlXdXe 4. .8 ^ VXxXlXlXzXlXgXBXxXR.% n n l c m V oXwX,X3Xa.",
"k.uX&X<X,Xu.m z v k O y.NXBXbXvXNXxXNXNXvX~.y - 2.< E.NXMXlXzXMXzXzXmXlXdXu 1. .9 / NXBXvXMXBXvXvXcXvXsX+ o n v k N $X3X:X7X2Xk.",
"] rX%X7X:X&X` O   . g ~ Y.Y.Y./.I.U.U.U.T.t.g * 4.4 W.bXMXmXkXzXzXkXjXmXhXu <. .w F P.R.Y.Y.Y.I./.I.Y.t.g .   O a OX2X,X,X7X:Xs.",
"k.,XyX>X5X*X`.h e & q A q 8 9 0 p 9 p p 8 p A 2 2.4 ~.vXzXMXzXgXxXxXgXMXhXg 5. .g g g y 0 9 0 9 8 q w p A & 5 g e.oX,X<X,X,XtXd.",
"f.rXeX>X<Xv.8 g S : : > , 5 3 ; > 5 , , 2 > < X.2.< ^.cXjXBXlXlXmXzXxXMXfX9 <.=.4 3 , > 3 3 3 5 5 & > 5 * . S A h Y rX:X7XwX*Xh.",
"' eX5X2XyX=XS r.r.* =.6.#.3.5.3.4.1.7.6.&.<.<.3.*.6 ~.NXVXBXcXlXVXzXNXNXdXq &.5.1.<.7.7.6.1.<.4.0.6.7.2.<.o.g n.s `.wXeXeXyXyXh.",
"I Y ! ~ U W 8 8 8   - 3 - 3 5 > - 3 - = = - 5 = > . Z y.t.( ( ( ( ( t.^ /   > > = = & = - - 3 - & , * * 3 :   i   T ! ~ ~ ! ~ P ",
"N F.m.B.M.M.G.M.m.M.Z.M.M.N.m.S.M.M.m.M.A.Z.A.A.F.m.D.A.N.N.A.A.N.A.Z.m.M.D.G.S.M.A.A.M.Z.A.Z.m.A.S.S.M.Z.A.A.N.M.m.Z.N.A.m.A.N ",
"J S.J.F.C.J.J.C.S.S.L.L.S.J.J.V.M.J.H.H.H.H.V.V.M.L.V.H.H.L.L.M.V.J.J.L.L.H.S.V.H.H.L.H.H.V.H.J.S.M.V.L.J.S.H.V.J.K.S.K.J.L.D.J ",
"K K U K P P K P V P V V L V L P P K L K V L L C P P V U L L V K V P K V K V U C L L V L L L L L K U C C K U V P C P C L V L U K ",
"s.,X,X,X,X,X,X,XwXwX,X,X,X,X,X,X,X,X,X,X,X,X,X,X,X,X,X,X,X,X,X,XtX,X,X,X,X,X,X,X,X,X,X,X,X,X,X,X,X,X,X,X,X,X,X,X,X,XwX,X,X,X,Xa.",
"j.,X,X:X>X,X,X3X,XwX,X,X,X,X<X,X,X,X,X,X,X,X,X:X,X,X,X,X,X,X,X,X,X,X,X:X,X,X,X,X,X,X,X,X,X,X,X,X,X,X,X,X,X,X,X,X2X,X:X,X,X<X2Xj.",
"a.7XwX,X,X*X&X,XwX,X*X,X*X,XwXwX,X:XwX,X,X,X*X,XwX,X,X,X,X,X,X*X,X,X*X,X,X,XwXwX,X7X,X,X,X,X,X,X,X7X,X,XwX,X,X,XwX:X*X,XwXwX,X' ",
"s.2X,X,X<XeX:X<X:X,X,X:X,X,X:X,X,X,X,X,X,X,X,X,X:X,X:X,X,X,X,X,X,X,X,X,X,X:X,X,X:X,X,X,X,X,X:X,X:X,X,X:X,X,X,X,X<X>XwX<X,X,X2Xd.",
"d.wX,X&X,X,X&X,X,X,X,X,X,X,X,X,X,X,X,X,X,X,X,X,X,X,X,X,X,X,X,X,X,X,X,X,X,X,X,X,X,X,X,X,X,X,X,X,X,X,X,X,X,X,X,X,X,X:X*X,X&X,X,Xs.",
"a.,XtXwX,X7X,X3X,X,X,X,X,X,X,X,X,X,X,X,X,X,X,X,X,X,X,X,X,X,X,X,X,X,X,X,X,X,X,X,X,X,X,X,X,X,X,X,X,X,X,X,X,X,X,X,X,X,XwX,XwXwX,Xa.",
"l.*X,XtX,X*X,X,XwX3X2X2XwX2X,X,X,X2XtX2X3XtXtX,X,X2X,XtX,XyXtX2XtX2X2X,XwX2X,X,XtX2X3X,X2XyX,XtXtX2X,X3X,X2X,X2X,X,X7X,XtX*X>Xl.",
"I l.a.j.s.s.j.d.s.s.d.d.d.s.d.j.d.s.d.d.s.s.s.s.j.d.s.s.s.d.d.s.d.d.d.d.d.s.s.j.d.s.s.s.s.s.d.s.d.s.d.s.s.j.d.s.h.j.s.s.j.a.l.I "
};
