/* XPM */
static char *imgonline_com_ua_resize_vS9jdsMgloNdnRh1710763555[] = {
/* columns rows colors chars-per-pixel */
"64 64 255 2 ",
"   c #2E130E",
".  c #17390B",
"X  c #0F3309",
"o  c #372319",
"O  c #2A2E13",
"+  c #3A1F23",
"@  c #382625",
"#  c #061F00",
"$  c #480407",
"%  c #58080C",
"&  c #4B1206",
"*  c #5A140D",
"=  c #4B0214",
"-  c #480619",
";  c #580715",
":  c #4C1419",
">  c #5D1314",
",  c #5A141A",
"<  c #64080B",
"1  c #77080C",
"2  c #7B120C",
"3  c #680914",
"4  c #780717",
"5  c #681317",
"6  c #781817",
"7  c #61130F",
"8  c #492A18",
"9  c #54291B",
"0  c #4C331A",
"q  c #55351E",
"w  c #4E340F",
"e  c #68261A",
"r  c #561823",
"t  c #500E23",
"y  c #750424",
"u  c #6C1424",
"i  c #492926",
"p  c #592626",
"a  c #493426",
"s  c #583527",
"d  c #583736",
"f  c #503238",
"g  c #692827",
"h  c #683B2A",
"j  c #653A37",
"k  c #743735",
"l  c #76262D",
"z  c #0C4508",
"x  c #0E5C0B",
"c  c #095A07",
"v  c #145C0B",
"b  c #18580A",
"n  c #144A15",
"m  c #0B5C12",
"M  c #135C12",
"N  c #175911",
"B  c #0E4A0D",
"V  c #11610E",
"C  c #355126",
"Z  c #4D493C",
"A  c #55483C",
"S  c #484B30",
"D  c #6D4C34",
"F  c #76663C",
"G  c #6E3943",
"H  c #5A3D42",
"J  c #4D4A42",
"K  c #494942",
"L  c #534B43",
"P  c #574845",
"I  c #53564C",
"U  c #6A474B",
"Y  c #774A4B",
"T  c #6D4A51",
"R  c #764C55",
"E  c #6B5656",
"W  c #7C535B",
"Q  c #765659",
"!  c #6E554D",
"~  c #6E6944",
"^  c #756947",
"/  c #797758",
"(  c #7D6E4F",
")  c #7A5962",
"_  c #7A6362",
"`  c #87070D",
"'  c #97080A",
"]  c #9D0A0A",
"[  c #98060B",
"{  c #850B15",
"}  c #970A14",
"|  c #931318",
" . c #8B1215",
".. c #A20B0D",
"X. c #A8090A",
"o. c #A80A15",
"O. c #BB0C13",
"+. c #BC0C19",
"@. c #B30A16",
"#. c #A71215",
"$. c #BF1116",
"%. c #B81219",
"&. c #B30F0D",
"*. c #95022C",
"=. c #9B012D",
"-. c #960325",
";. c #8B0133",
":. c #9C0134",
">. c #970036",
",. c #8D1227",
"<. c #A30229",
"1. c #B70C22",
"2. c #A20134",
"3. c #B31028",
"4. c #823B39",
"5. c #C40C14",
"6. c #C40E19",
"7. c #CB0C17",
"8. c #C41216",
"9. c #C3121C",
"0. c #CA131C",
"q. c #CA171A",
"w. c #CB0E13",
"e. c #C90E24",
"r. c #C91221",
"t. c #93503A",
"y. c #95384B",
"u. c #84555B",
"i. c #8A544B",
"p. c #846A48",
"a. c #867758",
"s. c #8B7450",
"d. c #845B62",
"f. c #8A5A65",
"g. c #915C6E",
"h. c #896568",
"j. c #93666B",
"k. c #8C6B72",
"l. c #986B75",
"z. c #967478",
"x. c #A46C77",
"c. c #A5757C",
"v. c #AE696E",
"b. c #AF5452",
"n. c #C6736A",
"m. c #C36A55",
"M. c #178D3C",
"N. c #18953D",
"B. c #0E9539",
"V. c #22903D",
"C. c #17A23E",
"Z. c #1A8E41",
"A. c #1B9242",
"S. c #199942",
"D. c #229042",
"F. c #1BA443",
"G. c #1AA645",
"H. c #25A347",
"J. c #958859",
"K. c #97905C",
"L. c #988D64",
"P. c #9B9364",
"I. c #9D9571",
"U. c #A69670",
"Y. c #ADA56B",
"T. c #ACA674",
"R. c #B4A574",
"E. c #BAB378",
"W. c #A68B5E",
"Q. c #D28C72",
"!. c #C4B77A",
"~. c #D2A57B",
"^. c #9C7682",
"/. c #A97982",
"(. c #B77987",
"). c #B96C80",
"_. c #C67D86",
"`. c #998D8C",
"'. c #AA8389",
"]. c #B7848A",
"[. c #B98893",
"{. c #B99196",
"}. c #AF9998",
"|. c #B5AD82",
" X c #AFAEAC",
".X c #C68998",
"XX c #D38C9B",
"oX c #C9939C",
"OX c #D5969D",
"+X c #C1888F",
"@X c #C7B682",
"#X c #D9AB81",
"$X c #CB96A3",
"%X c #D595A4",
"&X c #DC95A4",
"*X c #DD9BA6",
"=X c #DD9CAA",
"-X c #D59BA8",
";X c #DB9BB2",
":X c #D08FA6",
">X c #E395A5",
",X c #E39BA6",
"<X c #E396AA",
"1X c #E49DAB",
"2X c #EA9CAC",
"3X c #EB97AA",
"4X c #E59DB1",
"5X c #EB9DB2",
"6X c #F19CB1",
"7X c #F19EAB",
"8X c #DDA1AB",
"9X c #D7A6AB",
"0X c #DDA3B2",
"qX c #DAAAB6",
"wX c #D5ACAF",
"eX c #E4A1AD",
"rX c #E9A1AE",
"tX c #E3A7A8",
"yX c #E5A2B1",
"uX c #EBA3B3",
"iX c #E9A7B8",
"pX c #F2A6B8",
"aX c #E9B4BD",
"sX c #F3B6BD",
"dX c #DBCF8B",
"fX c #E9DB98",
"gX c #F5D998",
"hX c #ECD092",
"jX c #ECE599",
"kX c #F3E596",
"lX c #F4E49B",
"zX c #FBE49C",
"xX c #F4EA9C",
"cX c #FCEB9D",
"vX c #FAE695",
"bX c #F6E88F",
"nX c #F3E4A2",
"mX c #FCE4A3",
"MX c #FCEBA3",
"NX c #F9E9A7",
"BX c #F3F0A4",
"VX c #DBD0B2",
"CX c #ECBBC6",
"ZX c #FDBCCC",
"AX c #F7B8C8",
"SX c #FEBDD1",
"DX c #FDC3CD",
"FX c #F7C4C9",
"GX c #FEC3D3",
"HX c #F8C5D4",
"JX c #EDC6C6",
"KX c #FDFDFE",
"LX c #F7FBFA",
"PX c #E8EBE7",
"IX c #D5D6D4",
/* pixels */
"1X1X1X1X1X1X1X1X1X1X1X1X1X1X1X1X1X1X1X1X1X1X1X1X1X1X1X1X1X1X1X1XrX,XeX1X2XyXk.`.`.l.:Xf.)  XLXKXKX`./.yX*X2X,XeX1X1X1X1X1X1X1X1X",
"1X1X1X1X1X1X1X1X1X1X1X1X1X1X1X1X1XeX1X1X1X1X1X1X1X1X1X1X1X1X1X1X,XeX*X1X&XuX-Xc./.$Xk. XVXKXKXKXKXKX`./.1XuX2X*X1X1X1X1X1X1X1X1X",
"1X1X1X1X1X1X1X1X1X1X1X1X1X1X1X1X1X1X1X1X1X1X1X1X1X1X1X1X1X1X1X1XeX*XeXuX3X>XiX-XXXk.IXLXLXLXKXKXKXKXPXE %X3X*XeX1X1X1X1X1X1X1X1X",
"1X1X1X1X1X1X1X1X1X1X1X1X1X1X1X1X1X1X1X1X1X1X1X1X1X1X1X1X1X1X1X1X2X*XeX*X5X3X<XuX) IXKXLXLXKXKXKXKXLXPX_ *X6X,X1X1X1X1X1X1X1X1X1X",
"1X1X1X1X1X1X1X1X1X1X1X1X1X1X1X1X1X1X1X1X1X1X1X1X1X1X1X1X1X1X1X1X2XeX*X*X1XeXuX&XE PXLXLXKXKXKXKXLXPXk.oX-XuX,XeX1X1X1X1X1X1X1X1X",
"1X1X1X1X1X1X1X1X1X1X1X1XeX1X1X1X1X1X1X1X1X1X1X1X1X1X1X1X1X1X1X1X1X1X1XuX=X*X1X1X) PXLXLXLXKXKXPX}.E .X5X2X*X2X1X1X1X1X1X1X1X1X1X",
"1X1X1X1X1X1X1X1X1X1X1X1X1X1X1X1X1X1X1X1X1X1X1X1X1X1X1X1X1X1X1X1X1X1XrX&XeXeX=X1Xl.}.LXKXKXKXLX}.c.8X2X,X1XeX*XeX1X1X1X1X1X1X1X1X",
"1X1X1X1X1X1X1X1X1X1X1X1X1X1X1X1X1X1X1X1X1X1X1X1X1X1X1X1X1X1X1X1XeX,X1X,XeX>XeX1X1Xl. XKXKXLX}.c.=X<XeXeX,X1XeX<X1X1X1X1X1X1X1X1X",
"1X1X1X1X1X1X1X1X8X3X,X9X1X3X*X2XeX=X1X1X1XeX1X1XeX=X1X=X1X1X1X1X1X1X1X1X=X1X1X=X2XOXZ I ! ~ f OX2X,XeX3X9X3X=X2X1X1X1X1X1X1X1X1X",
"1X1X1X1X1X1X1X1X2X2XeX*XeX2X9XyX2X3X1X1X1X1X2X1X1X1X2X2X1X1X1X1X1X1X1X1X2X1X1X2XeX(.D 4.t.D A ].yX0XyX%X,XeX,XeX1X1X1X1X1X1X1X1X",
"1X1X1X1X1X1X1X1XeX*X1X5XyX6X4X2X4XeXuXyX2XyXyX4XeX5X2XyXeXuXyX5XyXrXyX4XuX2XyXyXyX>Xj t.t.b.j ;X5X6X,XpX2X2X1X8X1X1X1X1X1X1X1X1X",
"1X1X1X1X1X1X1X1X,X1X2X-Xh.i.Q W W W W W W W W W W W W W W W W W W W W W W W W W W W o i q i o u.Q i.Q {.0X=X3X1X1X1X1X1X1X1X1X1X",
"1X1X1X1X1X1X1X1X8X2X2Xj.{ ` [ } ' ' ' [ ' ' ' ' ' ' ' ' [ ' ' [ ' ' [ ' ' ' [ [ ' }  .} } ]  .[ [ } } k eXyX3X9X1X1X1X1X1X1X1X1X",
"1X1X1X1X1X1X1X1X1X,XOXg @.r.e.6.9.9.9.9.9.9.9.9.9.9.9.9.9.9.9.9.9.9.9.9.9.9.9.9.9.r.$.w.7.0.8.8.r.9.6.4 v.iX2X=X1X1X1X1X1X1X1X1X",
"1X1X1X1X1X1X1X1X2X4Xl.{ 5.8.5.+.$.+.$.$.$.$.$.+.$.$.+.9.$.$.+.6.6.$.$.$.+.$.$.$.r.5.O.8.9.5.9.8.O.O.9.o.j %XuX1X1X1X1XeX1X1X1X1X",
"1X1X1X1X1X1X1X1X=X&Xp 1.8.&.8.e.8.6.6.6.6.6.9.5.9.5.9.5.9.5.6.6.6.5.9.6.9.5.9.5.$.8.$.9.$.7.9.$.0.9.6.6.5 c.5X2X1X1X1X1X1X1X1X1X",
"1XeX1X2X2X-XiX>X4Xh.| e.5.5.$.6.6.6.0.5.r.6.6.6.9.6.6.7.6.+.+.r.9.6.6.r.+.6.6.0.r.6.e.+.r.e.6.9.6.6.5.$.@.s 5X4X=X1X,X2X2X=XuX,X",
"=XeX=X2XeXeX*XrXOXQ < [ ....o.o.....' ..X.] ] ] ] ..#.....] ....] #.....] ..X.} [ ....} ' ......#.o.o... .p _.=X1XrX2X,X1X=X,XeX",
"1X2X,X1X2X2X*X+X) E u.f.A i U U T + E ) ) H f T T T + R Q ) H i T T T @ Q ) f.f f R T i P Q ) T @ T T Y i P d.^.eX=X2X1X2XeX&XrX",
"8X1X2XeX1X,XiXd.{.DXZXGX[.l.5X4X$Xd.AXSXSX(.x.uX5XoXu.AXGXGX/./.uX4X.Xd.SXSXAX^.c.4X4Xf.-XGXZX-Xf.5X4X-X_ wXaXQ oXeX=X1X=XyX2X,X",
"yX,X1XeX=X2X[.d.DXZXZXCXT -X=XeXj.].ZXZXCXQ -X3XuXf.{.ZXDXaXR %X,XuXu.$XFXAXaXW <XyX(.j.HXGXFXW ].5XuX(.h.ZXGX/.l.0X1X1X=X1X2XeX",
"1X1X1X1X1XyXf.{.ZXZXSXl./.2XuXXXQ sXZXDXk.z.9X7X[.u.JXDXDXk.c.eX8X+Xu.aXHXGXd.U.,X=XR qXFXDX{.h.yX=X-XW qXSXHXqXG oXyX2X1X1X,XeX",
"=X1X1X1XeX[.g.CXFXDXwXu.OX*X1Xj.'.GXGXqXd.$X1X1Xj.[.ZXGX0Xu.-X1X;Xj.oXDXSX0Xu.=XuX/.l.FXZXAXf.[.1XeXx.c.DXDXsXf.d.l.-XuX2X2X=X1X",
"1X=X5X,XyXh.[.GXZXZX`.l.4X0X:X) CXDXZX/.l.2XuX.XQ CXZXFX/.x.eX4X.Xu.CXGXZXl./.2X-Xd.$XGXZXoXg.,X6X&XQ 8XDXZX$X) oXR %X1X*X1XeX,X",
"1X,X1XyXXX! ZXDXDXsXW OX>X5Xl.^.DXFXaX! ,X*X5Xh.].GXCXAXW =X4X5Xh.{.GXZXqXR 8X2X(.j.HXZXSXQ +X5XeX/.k.DXAXAXd..X2Xh.c.2X1XeX2X1X",
"eX1X1X*X*XT AXZXDX^.l.yX0X$XW AXsXGX^./.*XeXXX) AXCXDXk.v.eXuX.Xu.sXDXDXk.(.eX1XQ qXFXDX.Xf.9X,X3XE iXGXZX{.j.;XiXf.l.uXyX*X=XeX",
"2XeX,XuXOXT HXDXsXU oX3XyXh.c.DXHXqXG :X5X0X) '.SXDXtXU XXyX*Xu./.FXHXeXU $XtX/.Q FXGXCX) (.yXuX/.) ZXSXCXQ (.5X8Xf.c.4X,X=X,X2X",
"=X*X=X4X%Xj..XFXc.; u.;X.Xg l $XZXv.> u.&X.Xg g -XAXj., u.;X.Xp k ;XCXj.5 g.$Xy.5 /.HX[., 4.oX:XY y ].ZX{.5 4.XX$Xu.+XuX=XiX1X,X",
"eXuX1X>XeX$Xf.r  .9.o.: e +.@.6 p  .6. .p u o.9.g s | e.| r 6 1.@.l s | e.-.9 } r.,.g l 1.#.5 r ..9.6 9 6 1.3.8 d .X=X-X2X,X4X1X",
"1X*X&XuXrXeX{.r &.5.1.o.o.@.+.1.@.+.&.@...O.&.5.5.+.@.o.1.%.o.@.+.+.X.@.%.O.&.q.&.o.X.&.+.O.%.@.%.X.&.1.@.%.8.2 l.yXiX=X1X,X=X2X",
",XeXyX>X*XrX+Xg 9.o.k G f i p + d d + j : f j :.e.@.% - ; $ $ = - $ = = = { 7.@.l G d t i @ G + f j 8 f G | e.{ k.,X2X1X2X5X=X,X",
"2X1XeX1XeX2XOX, q.1 XXJXf._.[.h.ZXh.(..Xd.JX9Xe %.1 y u : t r : t t i t -.% 1.2 ].HXk.(.^./.SX) _.XXR AXqXe %.` l.6X<XyX,X,XeXeX",
"eX8X5X3X2X9XoXu X.Y HXoX_ -Xd.$XwX) ;Xg.[.CX_ f.` 4 $ i.dXdXdXdXdXhXdXR.t % o.G FX9X) oXR CX'.g.yXl./.CXk.f.1 { l.2X2X,XyX=XyX,X",
"1X1X4X,X*XrXXXr 6 $XZXk.(.:Xf.SXl.).oXu.AX/./..Xl 3 = p.mXmXmXzXxXjXcX|.- ; 2 {.SXk.(.l.'.AXh.:X:Xd.AX].g.%Xk < l.2X2XeX%X5XeXeX",
"3X4X1X8XeX,XOX, 6 ].-Xf .XR l.qXd .Xh.k.iXf /.oXl < - a.vXxXgXgXgXNXmX@X- ; 2 /.iXf .XQ j.iXf (.k.Q CXH ^.oXl 1 l.yX&X1XpX3X1XeX",
"5X=X1XrX1XeXXXr 6.l + I p.J.U.~ |.a.a.I.^ /   p @.1 = p.dXhXhXhXhXhXlXE.- ; O.,.a S ( a.U.^ |./ s.U.p./   p %.` l.5XuX*X2X,XeX=X",
"1XeXeX,X5X=X%X: O.1 8 a.mXgXnXfXgXfXlXxXnXR.0 > w.4 = i.n.n.Q.~.m.m.gX@X- ; 0.1 8 p.fXlXlXfXzXvXfXNXgX|.s : e.2 x.3XrX-X,X1X1X2X",
"1X1XtX=X5X5X(.O   & 9 p.nXMXjXvXlXzXkXkXmXR.0 > 8.1 = ( b.b.n.XXQ.Q.mX!.- = 5.{ 8 ^ nXkXvXjXkXkXvXzXzXE.9 : & # ! yX,X0XeX1X=X2X",
"eX>X,XyX&XeXA B c X 0 ( NXjXjXzXnXnXjXgXmXT.i , 0.4 = ^ n.n.Q.Q.#X#XgXE.- ; 8.2 i ~ NXjXmXnXNXgXkXlXlXE.s   B V O }.1X4X2X*XeX1X",
"=XeX,X2XeXh.. x v B o p.mXxXnXnXlXnXkXcXMXY.w * 5.3 < ^ gXfXhXgXhXhXvX!.- = 6.{ 9 F mXkXzXjXlXzXmXnXMX!.O . c b n A XX4X5X,XtX1X",
"8X7X3X=X-XO M M v m X ^ cXmXMXkXvXcXlXcXMXR.s % O.1 ; ( nXjXxXgXgXnXNXE.- = 5.{ 8 ^ MXMXxXMXNXzXMXNXMXE.# x x V V X c.yX3X,XeX*X",
"eX,X=X0X%XO N V V M n S J.P.J.K.L.L.K.J.K.~ a > e.4 ; ( zXxXzXNXzXzXvX!.= ; 9.{ s a K.J.J.J.J.K.J.J.J.F . N v V V z z.2XrX*XeX1X",
"1XuX<X4XQ . M m x v z S Y.Y.T.R.T.U.R.T.Y./ 0 & 0.1 ; p.MXmXxXNXxXNXMX!.; ; $.` a Z Y.R.Y.T.T.Y.R.R.E./ X V N v x z S &XyX=X1X3X",
"yX-XpX(.. x v M V N b n !.cXMXvXMXzXMXMXcXT.s * w.4 ; d a./ a.a./ a.a.i.t = 8.` 9 ^ MXMXxXmXNXcXxXvXkXS c c N v x V z Y 0XeX,XuX",
"2XtX*Xc.. x c V v m x X !.zXlXkXxXvXgXkXcXR.i > &.1 y y 4 y y 4 y y y 4 ;.; $.2 9 ^ lXmXlXgXmXzXkXnXmXC b x m m v c c U ;XrX&XeX",
"<XeXuX].. M V x x m V . !.NXnXnXxXkXnXxXcXR.a * 0.1 3 g 5 =.<.=.:.<.:.:.*.= +.{ 9 ~ lXmXxXnXnXkXnXNXhXS z N v c v m n ! yX1X2X8X",
"uX&X3X,X_ . N N m x X F mXnXlXjXxXlXcXkXcXR.q & e.4 u u 4 :.2.=.=.<.=.2.*.$ 6.{ 8 ~ BXzXkXkXlXkXgXNXmXT.# N M x v n A oX1X1XrX*X",
"4XtX8X5X4X_ . c B z O s.MXNXvXcXMXzXMXcXMXR.i > 5.1 y -.:.>.;.*.*.:.;.>.;.$ 9.{ 9 ~ MXNXcXMXNXcXvXxXcX@XO X N B B C :XuX,X1X1X2X",
"1X*X,X,X8X=Xh.      h D I.P.P.W.L.P.L.L.I.a.h * w.1 y >.2.-.=.-.-.>.*.} ;.% 6.1 w F J.P.P.L.P.K.W.K.P.a.h &   O f {.1X1X1X8X1X,X",
"4X<X5XuX2X=X/.d e * q D 9 8 9 a q 9 s q 8 s D 7 7.1 y >.2.*.:.:.:.>.:.*.;.= 6.} h j h i 8 9 q q 0 s w q D % 7 h d.-X4X3X5X2X4X2X",
"yXeX8X*XpXv.8 D D & & * < 5 3 , < 5 < % 7 < 1 | w.1 3 *.2.=.=.:.=.:.2.<.;.$ 5.$.4 < < < 3 5 3 3 5 < < 7 &   D D d D 2XeXeX=X*X,X",
"6X*XiX5XrXOXk i.i.* %.q.O.w.8.w.9.5.w.0.8.5.w.w.$.4 4 :.=.*.=.:.=.:.2.=.*.% +.6.w.5.8.q.q.5.5.5.e.0.0.0.5.2 h b.j ].1X2XrXtXrXuX",
"Q ! ! E R E o 8 o   * 3 > 7 5 < > % 5 > > , 5 > >     - t - - - -   - ; -   % * > * % > > > 7 > % < * * < :   a   P Q E U Q E ! ",
"M.N.N.S.Z.Z.A.M.N.M.S.M.N.B.M.S.N.N.M.A.Z.M.Z.A.V.M.Z.Z.D.Z.V.N.N.S.A.Z.D.B.A.V.M.A.A.A.Z.A.Z.M.A.S.S.N.M.A.N.B.S.M.N.A.A.M.A.A.",
"F.F.N.C.G.G.F.F.F.D.H.H.F.G.F.S.N.F.F.F.F.C.C.C.F.F.F.F.S.F.F.F.G.G.F.G.F.F.G.C.F.F.H.F.F.C.G.G.H.S.N.H.G.S.F.C.G.G.B.G.F.F.G.B.",
"K P P Z K L P K S P Z Z L K L P P L J L Z P L J A L J Z J L P Z L L J Z A J K P P J J L L L L L K L A Z K I J P A I Z L L A I J ",
"1XeX1X1X1X1X1X1XeXeX1X1X1X1X1X1X1X1X1X1X1X1X1X1X1X1X1X1X1X1X1X1X<X,X1X1X1X1X1X1X1X1X1X1X1X1X1X1X1XeX1X1X1X1X1X1X1X1X1X1X1X1X1X1X",
"1X1X1X1X1X1X1X1X1X1X1X1X1X1X1X1X1X1X1X1X1X1X1X1X1X1X1X1X1X1X1X1X1X1X1X1X1X1X1X1X1X1X1X1X1X1X1X1X1X1X1X1X1X1X1X1X1X1X1X1X1X1X1X1X",
"1X1X1X1X1X1X1X1X1X1X1X1XeX2X1X1X1X1X1X1X1X1X1X1X1X1X1X1X1X1X1X1X1X1X1X1X1X1X1X1X1X1X1X1X1X1X1X1X1X1X1X1X1X1X1X1X1X1X1X1X1X1X1X1X",
"1X1X1X1X1X1X1X1X1X1X1X1X1X1X1X1X1X1X1X1X1X1X1X1X1X1X1X1X1X1X1X1X1X1X1X1X1X1X1X1X1X1X1X1X1X1X1X1X1X1X1X1X1X1X1X1X1X1X1X1X1X1X1X1X",
"1X1X1X1X1X1X1X1X1X1X1X1X1X1X1X1X1X1X1X1X1X1X1X1X1X1X1X1X1X1X1X1X1X1X1X1X1X1X1X1X1X1X1X1X1X1X1X1X1X1X1X1X1X1X1X1X1X1X1X1X1X1X1X1X",
"1X1X1X1X1X1X1X1X1X1X1X1X1X1X1X1X1X1X1X1X1X1X1X1X1X1X1X1X1X1X1X2X1X1X1X1X1X1X1X1X1X1X1X1X1X1X1X1X1X1X1X1X1X1X1X1X1X1X1X1X1X1X1X1X",
"1X1X1X1X1X1X1X1X1X1X1X1X1X1X1X1X1X1X1X1X1X1X1X1X1X1X1X1X1X1X1X1X1X1X1X1X1X1X1X1X1X1X1X1X1X1X1X1X1X1X1X1X1X1X1X1X1X1X1X1X1X1X1X1X",
"1X1X1X1X1X1X1X1X1X1X1X1X1X1X1X1X1X1X1X1X1X1X1X1X1X1XeX1X1X1X1X1X1X1X1X1X1X1X1X1X1X1X1X1X1X1X1X1X1X1X1X1X1X1X1X1X1X1X1X1X1X1X1X1X"
};
