/* XPM */
static char *bdf90f685a894b4bd7a895275cc81d158rrcKS5P1PxxPMKF[] = {
/* columns rows colors chars-per-pixel */
"64 64 204 2 ",
"   c #77702A",
".  c #7F7D30",
"X  c #7E7A3A",
"o  c #835F3D",
"O  c #826A2C",
"+  c #8C6B3F",
"@  c #896936",
"#  c #91633F",
"$  c #83713B",
"%  c #897038",
"&  c #8D7839",
"*  c #947C3A",
"=  c #99713E",
"-  c #8A5B41",
";  c #985F49",
":  c #8A6843",
">  c #956647",
",  c #956D46",
"<  c #9C6945",
"1  c #926449",
"2  c #99634C",
"3  c #936B4D",
"4  c #9C6948",
"5  c #8E7147",
"6  c #9B7C4D",
"7  c #937B4F",
"8  c #9B6452",
"9  c #9C6B59",
"0  c #996D54",
"q  c #9D7750",
"w  c #9D7B56",
"e  c #A2674B",
"r  c #A66B4D",
"t  c #A1784D",
"y  c #A36955",
"u  c #A37A56",
"i  c #A27C5B",
"p  c #A27755",
"a  c #A75267",
"s  c #B96877",
"d  c #7FCE3F",
"f  c #7CCA47",
"g  c #7CD14B",
"h  c #818234",
"j  c #908239",
"k  c #8D8147",
"l  c #928840",
"z  c #968748",
"x  c #8F974E",
"c  c #8C9D4A",
"v  c #989649",
"b  c #979B4A",
"n  c #9F8A51",
"m  c #8D9951",
"M  c #9D9652",
"N  c #939B50",
"B  c #9C9B59",
"V  c #979A52",
"C  c #A08059",
"Z  c #AA8957",
"A  c #A49B59",
"S  c #92A04B",
"D  c #8DA351",
"F  c #98A256",
"G  c #96A358",
"H  c #9AB95E",
"J  c #A6A554",
"K  c #A8BD58",
"L  c #A6B65C",
"P  c #B18A6B",
"I  c #AC9465",
"U  c #A89664",
"Y  c #B29A66",
"T  c #9FBC60",
"R  c #9CB260",
"E  c #A5B762",
"W  c #A3BC62",
"Q  c #ACB161",
"!  c #B3B969",
"~  c #BDBB76",
"^  c #BBB379",
"/  c #BEB375",
"(  c #D69D77",
")  c #C1B875",
"_  c #84CD44",
"`  c #86CE4A",
"'  c #88CF4D",
"]  c #92CF4C",
"[  c #8CD947",
"{  c #85D44B",
"}  c #8CD54D",
"|  c #84DA4E",
" . c #8DDB4D",
".. c #87D446",
"X. c #93D54E",
"o. c #9AD44F",
"O. c #93DC4E",
"+. c #99D94F",
"@. c #86CE50",
"#. c #9CCF5B",
"$. c #97CB59",
"%. c #86D751",
"&. c #8DD652",
"*. c #86DB52",
"=. c #8DDC54",
"-. c #8CD65A",
";. c #8DDD5A",
":. c #86DD5B",
">. c #93D654",
",. c #9AD554",
"<. c #93DC55",
"1. c #99DA55",
"2. c #94D65A",
"3. c #9CD55C",
"4. c #94DC5A",
"5. c #9ADB5B",
"6. c #A3C456",
"7. c #A4C55B",
"8. c #A5CB5E",
"9. c #AAC75D",
"0. c #B0C25F",
"q. c #A3D45E",
"w. c #A3D95E",
"e. c #A4D557",
"r. c #8DE347",
"t. c #87E14A",
"y. c #8CE14B",
"u. c #92E14D",
"i. c #99E14F",
"p. c #85E151",
"a. c #8DE154",
"s. c #8EE15A",
"d. c #8FEB5A",
"f. c #93E154",
"g. c #9AE256",
"h. c #95E15E",
"j. c #93E25B",
"k. c #9AE15B",
"l. c #91EA5C",
"z. c #A1E05D",
"x. c #99CD67",
"c. c #93CC61",
"v. c #8FDD62",
"b. c #96D561",
"n. c #9CD464",
"m. c #94DB61",
"M. c #9CDB62",
"N. c #9ED369",
"B. c #97DE68",
"V. c #9BDC68",
"C. c #A3C365",
"Z. c #A9C463",
"A. c #A4CC63",
"S. c #A9CA64",
"D. c #ABC36C",
"F. c #A4CA69",
"G. c #AACC6A",
"H. c #A3C66A",
"J. c #B2C26B",
"K. c #BAC56B",
"L. c #B2CB6B",
"P. c #B4C666",
"I. c #A3D464",
"U. c #ACD363",
"Y. c #A4D962",
"T. c #A5D36B",
"R. c #ABD36B",
"E. c #A9DD67",
"W. c #B4D06A",
"Q. c #ACCA73",
"!. c #B3C372",
"~. c #B3CC72",
"^. c #B9C273",
"/. c #ABD571",
"(. c #BCD077",
"). c #94E463",
"_. c #9AE462",
"`. c #A3E166",
"'. c #C3C56F",
"]. c #C6C17F",
"[. c #CD8A84",
"{. c #D78786",
"}. c #D98B87",
"|. c #CD9A85",
" X c #D89389",
".X c #E2928A",
"XX c #E59187",
"oX c #EB959C",
"OX c #E49899",
"+X c #CDB181",
"@X c #FCB69D",
"#X c #F599A4",
"$X c #F8AFA6",
"%X c #F3ADAB",
"&X c #FCACAB",
"*X c #F7ACA6",
"=X c #E8B3A3",
"-X c #FDB7A8",
";X c #FDAEB3",
":X c #FFB7BA",
">X c #FFBDB3",
",X c #FFC6BD",
"<X c #FFBCC3",
"1X c #FFC2C8",
/* pixels */
"4.<.=.j.4.4.5.<.O.+.O.+.<.&.s.:.<.<.<.<.<.} .. .<.<.<.<.4.4.4.4.5.<.4.<.1.+.+.<.=.).4.;.a.f.,.5.,.,.<.<.;.:.j.=.<.<.<.<.<.<.<.4.",
"<.<.<.4.;.&.5.3.I.U.U.q.5.4.&.h.<.<.<.<.f.<. .<.<.<.<.<.<.4.4.4.5.5.<.<.1.O.<.<.;.=.<.<.;.<.R.L.W.8.M.=.f j.;.h.<.<.<.O.<.<.4.4.",
"O.<.5.m.;.;.h.T.^ : 7 ~ I.<.M.2.;.;.4.<.<.<.<.<.<.<.<.,.>.>.5.4.5.4.<.<.1.<.:.;.j.=.d f.j.T./ , 6 ].A.>. .<.<.>.4.;.<.O.<.<.4.;.",
"O.<.2.5.;.s.5.W i %X Xw S.<.5.M.;.;.4.4.5.<.<.<.<.<.<.<.<.<.4.4.4.4.;.<.1.<.;.;.4.<.[ O.4.C.u *X XC H.M. .O.1.2.;.;.<.<.+.<.;.;.",
"1.1.,.<.<.<.,.E 2 <XoX1 S.g.>.<.;.;.4.5.5.5.4.4.<.<.<.1.1.1.<.&.4.4.<.<.1.<.4.4.2.1.i.u.4.H 0 <XOXo Q._.[ O.1.5.;.;.<.O.O.<.4.m.",
"<.1.1.<.=.=.5.S.Z ; y Y A.<.O._ 4.=.5.5.5.4.;.&.;.<.<.<.1.<.=.{ 4.4.<.<.1.1.4.4.5.1.O.+.h.F.I 2 8 U T.&.f.O.1.<.4.4.1.X.O.<.5.m.",
"=.;. .O.&.} <.3.Z.S F D.5.=.} 1.1.<.5.1.<.<.:.g ;.;.<.<.<.<.=.=.4.4.<.<.1.1.<.<.5.1.<.[ 4.Y.W V V D.2.g <.f.<.4.4.<.1.1.<.<.5.5.",
"s.;. .f.<.&.<.<.,.,.n.3.4.;.k.2.<.<.1.1.<.j.s.g a.s.<.<.<.<.f.a.<.<.<.<.<.<.<.<.>.4.&.k.<.>.Y.q.#.w.<.| <.<.<.<.;.<.<.<.<.<.<.<.",
"s.a.=.<.<.<.f...f.<.1.5.=.;.m.;.<.<.1.1.<.f.=.s.:.;.<.<.} } =.a.=.<.4.4.<.<.<.=.;.;.5.5.1.+.O.u.u.O.<.<.5.4.;.;.=.<.<.<.<.;.;.<.",
";.=.&.<.<.=.f. . ...<.4.4.4.;.s.*.a.=._ g.O.f.=.;.;.<.<.<.=.=.4.<.<.=.=.=.<.f.a.;.;.4.2.2.X.O.y.r.r.<.<.5.4.;.;.<.<.<.<.<.a.<.<.",
"3.2.>.1.<.<.<.<.4.4.<.<.<.<.j.| l.| a.=.X.1.1.1.<.<.<.<.4.<.4.4.<.<.&.&.>.<.<.<.;.;.5.5.<.<.<.<.O.<.<.5.5.4.4.4.4.<.<.<.<.<.<.<.",
"q.3.,.5.4.<.<.<.2.<.4.4.k.} u.f.| ).=.<.<.5.1.,.1.1.<.<.4.4.5.<.<.<.=.<.<.<.<.<.4.4.5.5.<.<.4.4.5.4.4.4.4.4.4.4.4.<.<.<.<.<.<.<.",
"3.3.4.a.a.;.<.<.z.,.k.<.=.=.O.<.5.2.M.4.&.<.,.5.1.<.<.<.<.<.5.<.<.<.4.5.1.1.1.<.5.5.5.<.a.a.4.4.5.5.4.;.4.4.4.4.=.4.4.5.<.<.5.5.",
",.5.a.p.:.s.<.1.X.g.<.h.h.4.q.U.W.S.#.2.4._.<.,.1.1.<.<.<.<.5.<.<.<.5.5.2.X.1.<.<.5.<.<.a.s.4.4.5.5.;.;.<.<.<.4.&.<.<.<.<.<.1.1.",
"<.<.a.*.;.4.=.f.+.O.&.-.f T.) @ * '.S.n.v.:.;.<.1.1.<.<.;.<.4.<.<.<.5.5.=.=.O.<.<.4.;.=.O.+.<.<.1.1.=.=.2.2.<.=.=.=.<.>.=.:.<.<.",
"<.=.a.;.4.;.{ O.+.O.j.;.m.C.t @X( & ~.N.-.s.*.;.<.<.1.<.;.;.<.=.<.<.<.4.j.=. .=.<.<.=.} X.O.<. .O.O.<.<.,.,.4.<.<.f.<.<.=.:.<.<.",
"<.<.=.;.;.;.4.<.1.<.p.;.V.E < -X.X3 D.M.5.=.4.4.=.=.<.<.<.<.f.f.=.<.<.<.<.=.=.=.f.<.<.,.<.4.j.;.<.1.,.5.5.5.m.5.O.u.X.k.<.j.;.<.",
"1.1.<.;.;.;.4.5.1.<.p.s.b.D.Z r y I F.2.} O.4.<.j.<.<.4.4.;.=.| } =.<.<.<.<.<.=.<.<.<.<.<.4.4.;.=.<.,.,.4.;.M.4.+.O.<.<.4.4.<.<.",
"<.<.<.<.<.;.4.4.5.<.f.=.4.N.!.x N ~.3.<.X.<.<.4.<.<.1.1.;.;.4.<.=.=.<.<.<.<.<.<.<.<.<.<.<.<.;.;.<.<.>.5.;.:.a.=.=.4.;.h.4.<.4.<.",
"5.<.<.<.<.;.4.4.<.X.g. .4.-.N.T.n.,.>.O.<.<.=.j.<.<.1.1.=.;.4.4.4.4.4.5.<.<.<.<.<.<.<.<.<.<.<.<.4.=.&.4.4.4.4.,.R.G.n.2.>.<.1.<.",
"4.4.<.<.<.<.<.<.<._ 1.1.&.4.v.-.4.} <. .O.f.=.:.4.<.4.1.<.<.5.2.4.;.=.4.<.5.5.<.>.<.<.<.<.<.<.4.4.4.<.<.2.3.U.! , w ^.I.5.<.>.4.",
"4.4.<.<.<.<.<.<.<.} 1.1.X.<.h.;.<.k.f.<.=.a.=.a.4.=.<.<.4.<.>.' <.<.<.4.4.4.<.<.4.4.<.<.<.<.1.5.2.4.<.>.>.U.K z &X{.z S.5.k.<.<.",
"4.4.;.;.<.<.<.<.<.4.5.1.1.X.>.<.<.4.&.4.;.;.<.k.>.&.&.<.5.<.<.} 4.<.<.4.4.;.:.:.4.4.5.5.1.1.1.<.5.4.<.>.2.I.L % <XoX$ S.X.{ <.5.",
"4.4.;.a.<.<.1.<.4.=.4.&.5.5.o.X.5.>.4.h.;.<.<.1.,.>.5.4.4.4.4.4.<.O.>.<.<.;.;.s.%.&.&.<.1.<.1.<.5.5.<.<.<.Y.9.M 8 9 B A.5. .<.5.",
"5.<.<.<.<.1.1.1.4.;.s.4.5.1.1.1.<.<.<.4.4.4.<.<.<.4.=.4.4.4.5.<.<.O.1.1.,.k.=.a.:.;.<.<.<.<.a.;.4.<.<.;.=.5.,.7.m G x.m.5.4.<.<.",
"1.<.<.<.<.1.1.1.;.;.;.;.4.4.<.<.<.<.<.<.4.<.<.<.<.f.h.&.&.4.5.4.| f.O.X.1.1.<.;.;.;.4.<.<.<.;.=.=.=.;.<.<.4.1.5.x.x.B.m.2.5.<.4.",
"1.<.<.<.<.<.1.<.&.:.;.;.4.4.<.<.<.<.<.<.<.<.4.4.=.=.| f.j.=.<.| d.| f.5.,.,.,.5.<.<.<.<.<.<.<.=.=.<.<.<.<.1.,.,.3.2.4.;.2.5.<.4.",
"<.<.;.=.<.<.<.<.;.:.;.;.4.;.;.a.<.<.<.<.1.<.4.4.:.j.=.f.f. .f.j.| s.&.<.5.5.1.,.<.<.<.<.4.4.<.<.<.f.<.<.<.>.X.,.5.4.4.4.5.5.<.&.",
"<.;.;.;.4.4.<.<.<.f.4.4.4.4.;.;.4.4.;.<.1.X.,.<.h.&.<.<.O.O.>.2.M.m.4.).&.<.2.5.1.1.<.<.4.1.5.5.<.4.1.1.<.<.>.5.V.M.5.<.1.<.4.4.",
"<.<.4.;.4.5.<.<.<.<.4.4.4.<.<.<.<.4.;.;.1.1.1.<.&._.O.O.f.<.R.L.L.R.$.m.;.;.4.<.1.1.1.<.<.<.<.5.4.4.<.<.<.<.<.4.4.4.<.<.X.X.4.4.",
"<.<.5.5.5.5.<.<.O.<.<.<.<.<.1.O.[  .;.4.<.1.4.4._.<.O.g.<.A.^ + * '.G.b.).g j.<.<.<.<.=.=.*.=.4.;.4.<.<.1.O.y.t.a.s.a.<.o.o.<.;.",
"<.<.5.5.5.5.<.1.<.<.f.<.<.<.O.O.[ =.4.4.<.<.<.;.<.<.f.} M.H p -X( * L.n.-.;.;.=.<.<.<.a.=.*.:.j.;.;.4.<.1.<.u.t.p.a.p.<.,.X.5.<.",
">.5.5.>.<.<.<.<.4.<.<.<.<.<.+.+.<.<.4.<.;.;.<.<.<. .t.=.M.E < >XXX# D.b.5.<.<.<.4.<.f.| { ;.j.;.4.4.=.<.<.<.<.<.;.<.<.<.<.<.<.4.",
"&.2.<.<.<.f.<.;.&.&.>.4.<.O.O.O.<.5.<.<.;.;.<.<.O.f.a.a.b.~.Z e e I /.&.<.O.O.<.4.=.f.O.&.4.<.<.<.4.<.4.<.&.<.<.<.<.<.<.4.<.<.<.",
"&.<.<.<.<.<.=.=.<.&.=.4.<.<.<.<.<.<.<.<.<.<.5.1.,.1. .a.;.b.R x c A.4.=.f.5.<.O.=.f.O.<.4.<.4.4.<.4.4.<.&.} <.<.<.<.<.<.<.4.<.<.",
";.j.<.<.<.<.<.<.f.<.<.<.<.5.5.<.4.<.<.<.<.4.4.5.5.5.<.| s.m.c.N.M.2.=.f.<.<.<.<.=.4.,.,.5.4.5.<.<.4.<.<.&.} <.4.<.<.<.} =.<.<.<.",
"=.=.;.<.<.<.<.4.<.<.<.<.4.4.;.@.4.<.<.<.;.;.4.5.5.>.g.O.=.j.;.4.<.,.5.2.5.5.=.j.5.I.(.~.3.<.O.<.<.4.<.<.<.=.<.<.<.4.<.&.<.<.<.<.",
"=.;.;.4.4.<.,.<.<.<.<.<.=.4.4.&.<.<.<.<.=.;.4.4.4.>.1.g.O.[ f.j.>.5.1.,.5.5.h.5.T.D.$ k G.Y.5.} <.4.<.<.<.<.<.} <.<.<.<.<.4.<.<.",
"<.<.a.s.4.>.>.>.j.4.1.,.,.5.5.5.<.<.<.=.<.=.;.4.;.h.<.1.,.1.g.X.<.<.1.5.&._ j.n.! 6 =X|.z 0.$.&.<.4.<.<.4.<.<.} <.<.<.<.4.<.<.<.",
"q.3.<.<.<.<.>.<.;.=.<.5.1.2.<.<.<.<.<.<.O.O.<.<.a.;.<.1.] o.+.1.<.<.1.<.=.=.<.I.Q + ,X XO K.I.&.<.4.<.<.<.<.4.<.<.<.<.<.<.<.<.4.",
"K.P.U.e.1.u.O.f. .=.4.5.<.<.=.<.4.<.<.<.1.+.1.1.4.;.4.4.1.1.<.1.<.<.O.1.f.<.<.q.G.B > , J 8.n.;.<.<.<.<.<.<.<.<.<.<.<.<.<.<.<.<.",
"+XO j K.,. .<.O.=.f.<.4.<.<.f.;.&.&.=.<.1.+.,.1.4.;.;.;.5.5.<.<.<.<.1.+.=.<.<.,.I.T A A 6.3.5.m.4.<.<.<.<.<.4.<.<.<.<.<.<.<.<.4.",
"s ;X Xt Q.n.5.5.<.2.&.4.5.<.=.=.>.>.;.;.<.1.+.O.f.;.;.s.4.4.4.j.;.4.<.<.=.;.;.4.4.n.F.S.e.,.>.4.<.<.<.<.<.<.<.<.<.<.<.<.<.<.<.<.",
"a <X.X# Q.V.5.,.5.5.4.&.>.4.<.f.<.4.;.s.4.<.1.O.<.;.;.;.4.;.;.;.;.;.<.O.<.;.;.;.4.5.m.5.1.1.>.4.<.<.<.<.<.<.&.} 4.<.<.4.<.&.&.=.",
"P , = J 3.s.[ +.} <.5.2.2.5.4.=.<.<.;.;.;.<.<.<.=.| *.;.4.4.<.<.;.;.a.O.O.O.<.<.4.5.2.5.5.5.;.4.<.<.<.<.4.<.<.&.<.<.<.<.<.<.=.<.",
"! v b 9.j.p.O.g.<.4.>.M.M.>.4.j.<.<.<.;.;.4.<.<.<.=.=.;.4.<.<.<.;.;.O.+.+.1.<.<.5.5.<.4.4.4.;.4.<.<.=.<.<.<.<.<.<.<.<.4.<.<.<.<.",
"A.R.3.>.s.| 5.,.4.2.q.q.q.Y.5.<.O.f.4.4.5.5.5.<.<.<.<.<.<.<.+.<.4.4.+.+.1.<.;.;.<.<.u.<.<.4.<.O.<.<.<.<.<.<.<.4.<.<.<.4.<.<.<.<.",
"3.2.4.j.:.=.2.3.M.n.J.. h L.q.<.O. .5.2.3.3.5.<.<.<.<.<.<.1.O.<.4.<.1.,.1.5.<.;.<.<. . .<.<.f.O.<.<.<.<.<.<.<.<.<.<.<.<.<.<.<.<.",
"b.5.4.4.4.5.4.5.M.W u $X}.p G.<.} ;.5.2.3.5.<.<.<.O.<.<.1.1.1.<.*.g <.1.5.1.<.<.<.f.f. .} <.<.<.O.<.<.<.<.<.k.<.O.<.<.&.j.<.<.<.",
"b.5.4.<.5.4.;.;.Y.L > :X#X; Z.k.=.<.5.2.5.5.<. .d f.<.4.j.&.<.<.j.*.<.<.1.,.1.4.<.<.<.=.<.<.<.<.k.` <.>.<.5.>.1.] <.<.<.<.4.=.f.",
"b.5.<.O.<.<.<.4.2.S.M , : U T.&.<.<.<.>.<.<.<.<.<.| =.=.a.j.4.` >.<.5.<.<.<.4.<.<.<.<.<.<.<.<.<.&.4.4.5.<.>.I.A.8.#.5.k.>.5.=.4.",
"5.5.O.u.u.f.4.4.5.q.Z.b F ~.n.<.5.1.X.[ <.<.<.5.<.h.=.j.2.Y.F.G.I.w.3.2.5.4.4.<.<.<.<.<.<.<.<.<.4.4.&.5.<.E.J.X x !.3.<.5.>.4.;.",
"5.<.O.u.O.=.;.4.<.5.3.#.I.3.2.4.5.<.} | =.4.5.5.<.<.O.,.L.~ > q K.U.#.2.j.;.;.j.<.<.<.<.<.<.4.5.>.5.5.5.2.W i %X[.i G.5.5.<.4.4.",
"4.<.O.O.O.=.=.<.<.<.<.<.4.4.&.4.5.<.=.=.f.4.4.4.4.<.[ e.L 6 &X Xl 6.q.5.;.;.;.=.<.<.<.<.<.4.4.4.<.5.<.>.`.W 1 1XoX- ~.5.<.4.<.<.",
";.;.<.<.5.4.<.<.<.f.=.=.<.4.4.>.<.<.a.a.s.4.2.5.4.{ g.E.L 5 <XOX  6.Y.5.;.s.:.{ <.<.<.<.<.4.4.=.<.O.2.5.5.G.n 4 4 Y G.2.5.>.<.O.",
"a.;.5.5.5.5.4.4.<.=.j.4.&.5.2.5.<.<.=. .=.<.5.M.4.k.O.,.Z.B 9 3 F U.3.2.4.j.=.} <.<.1.2.<.4.=.| =.<.2.2.>.3.! v b P.q.<.5.5.=. .",
"a.;.4.5.5.5.<.<.<.<.4.5.2.2.,.2.<.<.=. . .<.5.5.5.<.<.>.M.$.c D A.3.5.5.<.;.;.f.<.<.1.<.<.<.;.=.;.4.5.5.<.<.1.,.3.1.<.<.5.5.4.;.",
"=.=.;.5.5.<.<.<.4.4.5.5.5.,.1.<.<.<.<.O.O.<.<.5.2.5.4.<.5.5.$.Y.5.5.5.5.<.<.<.=.<.<.1.1.<.<.;.;.;.4.5.<.<.<.<.=.=.=.=.<.<.5.4.;.",
"<.<.=.<.<.<.<.<.4.4.4.4.4.<.<.<.<.<.<.<.<.<.<.<.4.4.4.<.<.1.,.5.=.;.4.<.<.<.<.=.<.<.<.1.<.<.<.4.4.5.<.<.<.<.4.4.5.4.4.<.<.<.5.5.",
"1.<.<.=.=.<.<.<.<.=.=.<.<.<.<.<.<.<.<.<.<.<.<.<.<.<.>.<.1.<.1.&.| :.j.<.1.1.<.<.<.<.1.1.1.<.<.<.5.5.<.<.<.<.4.5.5.5.5.<.<.;.4.5.",
">.<.<.[ } O.<.<.<.;.=.<.<.<.;.a.a.;.;.<.<.<.<.<.<.=.{ =.5.4.M.4.%.=.<.<.<.<.<.<.<.<.<.<.<.<.<.<.<.<.;.;.<.<.<.<.<.<.<.<.=.=.<.X.",
"} <.<. .} <.<.=.;.=.<.<.<.<.;.a.;.;.;.<.<.<.<.<.<.=.=.<.<.&.5.4.<.<.<.<.4.4.<.<.5.<.<.<.<.<.<.<.O.<.4.;.<.<.<.<.<.<.<.<.;.;.<.O.",
"&.<.<.<.5.5.4.;.;.<.<.1.1.<.<.f.<.<.<.<.<.<.<.4.<.4.<.j.f.<.<.<.1.<.<.<.<.<.<.5.5.5.<.;.<.<.<.<.O.<.4.;.=.<.<.O.<.<.<.<.m.m.<.<.",
"s.<.<.5.5.4.4.;.;.<.<.5.5.5.<.<.1.<.<.<.O.<.<.4.4.4.<.|  .u.O.O.+.1.<.f.=.} >.5.5.5.4.<.<.<.<.<.O.<.;.-.}  . .} <.<.<.<.m.m.5.<."
};
