/* XPM */
static char *result[] = {
/* columns rows colors chars-per-pixel */
"57 69 6 1 ",
"  c #04ADFF",
". c #280800",
"X c white",
"o c #DD0000",
"O c #FF80C0",
"+ c #F8F8F8",
/* pixels */
"                                                         ",
"                                                         ",
"                                                         ",
"                                                         ",
"                                                         ",
"                                                         ",
"           ......            ....      ......            ",
"           ......            ....      ......            ",
"           ..XXXX..  ....  ..oooo......XXXXXX..          ",
"           ..XXXX..  ....  ..oooo......XXXXXX..          ",
"         ..XXXXXXXX..XXXX..oooooo........XXXX..          ",
"         ..XXXXXXXX..XXXX..oooooo........XXXX..          ",
"         ..XXXXXXXXXXXXXX..oo......oooo........          ",
"         ..XXXXXXXXXXXXXX..oo......oooo........          ",
"         ....XXXXXXXXXXXX..oooo..oooooooo..oooo..        ",
"         ....XXXXXXXXXXXX..oooo..oooooooo..oooo..        ",
"         ..XXXXXXXXXXXXXX..oooo..oooooooo..oooo..        ",
"         ..XXXXXXXXXXXXXX..oooo..oooooooo..oooo..        ",
"         ..XXXXXXXXXXXXXXXX........oooo......oo..        ",
"         ..XXXXXXXXXXXXXXXX........oooo......oo..        ",
"       ..XXXXXXXXXXXXXXXXXXXXXXXX......oo..oooo..        ",
"       ..XXXXXXXXXXXXXXXXXXXXXXXX......oo..oooo..        ",
"       ..XXXXXXXXXXXXXXXXXXXXXXXXXXXX..oooooo....        ",
"       ..XXXXXXXXXXXXXXXXXXXXXXXXXXXX..oooooo....        ",
"       ..XXXXXXXXXXXXXXXXXXXXXXXXXXXXXX......XX..        ",
"       ..XXXXXXXXXXXXXXXXXXXXXXXXXXXXXX......XX..        ",
"       ..XXXXXXXXXXXXXXXXXXXXXXXXXXXXXXXX..XXXX..        ",
"       ..XXXXXXXXXXXXXXXXXXXXXXXXXXXXXXXX..XXXX..        ",
"       ..XX..XXXXXXXXXXXXXXXXXXXXXXXX....XXXXXX..        ",
"       ..XX..XXXXXXXXXXXXXXXXXXXXXXXX....XXXXXX..        ",
"       ..XX..XXXXXXXXXXXXXX..XXXXXXXXXXXXXXXXXX..        ",
"       ..XX..XXXXXXXXXXXXXX..XXXXXXXXXXXXXXXXXX..        ",
"       ..XXXXXXXXXXXXXXXXXX..XXXXXXXX......XX..          ",
"       ..XXXXXXXXXXXXXXXXXX..XXXXXXXX......XX..          ",
"         ..XXXX....XXXXXXXXXXXXXXXXXXXXXXXXXX..          ",
"         ..XXXX....XXXXXXXXXXXXXXXXXXXXXXXXXX..          ",
"         ..XXXXXXXXXXXXXXXXXXXXXXXXXX..XXXX..            ",
"         ..XXXXXXXXXXXXXXXXXXXXXXXXXX..XXXX..            ",
"           ....XXXXXXXXXXXXXXXXXXXXXXXX....              ",
"           ....XXXXXXXXXXXXXXXXXXXXXXXX....              ",
"             ..........................                  ",
"             ..........................                  ",
"       ......OO..oo..OOOOOOOO..oooo..OO....              ",
"       ......OO..oo..OOOOOOOO..oooo..OO....              ",
"     ..++++..OO....oo........oo..oo..OOOO....            ",
"     ..++++..OO....oo........oo..oo..OOOO....            ",
"       ..++++....++..oooooooo..++..oo....XXXX..          ",
"       ..++++....++..oooooooo..++..oo....XXXX..          ",
"     ..++++++..oo..oooooooooo....oooo..XXXXXX..          ",
"     ..++++++..oo..oooooooooo....oooo..XXXXXX..          ",
"     ..++++++..oooooooooooooooooooooooo..XXXX..          ",
"     ..++++++..oooooooooooooooooooooooo..XXXX..          ",
"       ........oooooooooooooooooooooo........            ",
"       ........oooooooooooooooooooooo........            ",
"             ..oooooooooooooooooooo..XXXX..              ",
"             ..oooooooooooooooooooo..XXXX..              ",
"               ..oooooooooooooooo....XXXX..              ",
"               ..oooooooooooooooo....XXXX..              ",
"               ..................XXXXXXXX..              ",
"               ..................XXXXXXXX..              ",
"             ..XXXXXXXXXXXX..XXXXXXXXXX..                ",
"             ..XXXXXXXXXXXX..XXXXXXXXXX..                ",
"             ..XXXXXXXXXXXX............                  ",
"             ..XXXXXXXXXXXX............                  ",
"               ............                              ",
"               ............                              ",
"                                                         ",
"                                                         ",
"                                                         "
};
