/* XPM */
static char *result[] = {
/* columns rows colors chars-per-pixel */
"57 69 6 1 ",
"  c #04ADFF",
". c #280800",
"X c #DD0000",
"o c white",
"O c #FF80C0",
"+ c #F8F8F8",
/* pixels */
"                                                         ",
"                                                         ",
"                                                         ",
"                    ....                                 ",
"                    ....                                 ",
"        ............XXXX..            ......             ",
"        ............XXXX..            ......             ",
"      ....oooo..................  ....oooo..             ",
"      ....oooo..................  ....oooo..             ",
"      ..oooooooooo..oooooooooooo..oooooooooo..           ",
"      ..oooooooooo..oooooooooooo..oooooooooo..           ",
"      ..oooooooooooooooooooooooooooooooooooo..           ",
"      ..oooooooooooooooooooooooooooooooooooo..           ",
"      ..oooooooooooooooooooooooooooooooooooo..           ",
"      ..oooooooooooooooooooooooooooooooooooo..           ",
"      ....oooooooooooooooooooooooooooooooo....           ",
"      ....oooooooooooooooooooooooooooooooo....           ",
"      ..oooooooooooooooooooooooooooooooooooo..           ",
"      ..oooooooooooooooooooooooooooooooooooo..           ",
"    ..oooooooooooooooooooooooooooooooooooooooo..         ",
"    ..oooooooooooooooooooooooooooooooooooooooo..         ",
"    ..oooooooooooooooooooooooooooooooooooooooo..         ",
"    ..oooooooooooooooooooooooooooooooooooooooo..         ",
"    ..oooooooooooooooooooooooooooooooooooooooo..         ",
"    ..oooooooooooooooooooooooooooooooooooooooo..         ",
"  ....oooooooooooooooooooooooooooooooooooooo......       ",
"  ....oooooooooooooooooooooooooooooooooooooo......       ",
"    ..oooooooooooooooooooooooooooooooooooooooo..         ",
"    ..oooooooooooooooooooooooooooooooooooooooo..         ",
"    ....oooooooooooooooooooooooooooooooooooo....         ",
"    ....oooooooooooooooooooooooooooooooooooo....         ",
"  ....oooooooooooooooooooooooooooooooooooooooo....       ",
"  ....oooooooooooooooooooooooooooooooooooooooo....       ",
"      ..oooooooooooooooooooooooooooooooooooo..           ",
"      ..oooooooooooooooooooooooooooooooooooo..           ",
"      ....oooooooooooooooooooooooooooooooo....           ",
"      ....oooooooooooooooooooooooooooooooo....           ",
"    ..    ....oooooooooooooooooooooooo....    ..         ",
"    ..    ....oooooooooooooooooooooooo....    ..         ",
"            ............................                 ",
"            ............................                 ",
"          ..OOOO..XXXX..OOOO..XXXX..OOOO..               ",
"          ..OOOO..XXXX..OOOO..XXXX..OOOO..               ",
"        ....OOOO..XXXX........XXXX..OOOOOO..             ",
"        ....OOOO..XXXX........XXXX..OOOOOO..             ",
"      ..oooo....XXXXXXXXXXXXXXXXXXXX..OOOO..             ",
"      ..oooo....XXXXXXXXXXXXXXXXXXXX..OOOO..             ",
"      ..oooo....XXXXXXXXXXXXXXXXXXXX..........           ",
"      ..oooo....XXXXXXXXXXXXXXXXXXXX..........           ",
"      ..oooo..XXXXXXXXXXXXXXXXXXXXXXXX..++++..           ",
"      ..oooo..XXXXXXXXXXXXXXXXXXXXXXXX..++++..           ",
"        ......XXXXXXXXXX..XXXXXXXXXXXX..++++..           ",
"        ......XXXXXXXXXX..XXXXXXXXXXXX..++++..           ",
"            ..XXXXXXXX..oo..XXXXXXXXXX..++++..           ",
"            ..XXXXXXXX..oo..XXXXXXXXXX..++++..           ",
"            ....XXXXXXXX..XXXXXXXXXXXX......             ",
"            ....XXXXXXXX..XXXXXXXXXXXX......             ",
"            ..++..........XXXXXXXXXX....                 ",
"            ..++..........XXXXXXXXXX....                 ",
"            ..oo++++++++............++..                 ",
"            ..oo++++++++............++..                 ",
"              ............++++++++++oo..                 ",
"              ............++++++++++oo..                 ",
"                        ..++++++++++....                 ",
"                        ..++++++++++....                 ",
"                          ............                   ",
"                          ............                   ",
"                                                         ",
"                                                         "
};
