/* XPM */
static char *result[] = {
/* columns rows colors chars-per-pixel */
"50 67 7 1 ",
"  c #04ADFF",
". c #280800",
"X c white",
"o c #DD0000",
"O c #FF80C0",
"+ c #F8F8F8",
"@ c #DCFFFF",
/* pixels */
"                                                  ",
"                                                  ",
"                                                  ",
"       ......                  ..........         ",
"       ......                  ..........         ",
"     ..XXXXXX..................oooo..XX..         ",
"     ..XXXXXX..................oooo..XX..         ",
"     ..XXXXXXXX..XXXXXXXXXXXX..oooo....XX..       ",
"     ..XXXXXXXX..XXXXXXXXXXXX..oooo....XX..       ",
"     ..XXXXXXXXXXXXXXXXXXXXXX........oo......     ",
"     ..XXXXXXXXXXXXXXXXXXXXXX........oo......     ",
"   ..XXXXXXXXXXXXXXXXXXXXXXXX..oo..oooooo..oo..   ",
"   ..XXXXXXXXXXXXXXXXXXXXXXXX..oo..oooooo..oo..   ",
"   ..XXXXXXXXXXXXXXXXXXXXXXXX..oo..oooooo..oo..   ",
"   ..XXXXXXXXXXXXXXXXXXXXXXXX..oo..oooooo..oo..   ",
"   ..XXXXXXXXXXXXXXXXXXXXXXXXXX......oo....oo..   ",
"   ..XXXXXXXXXXXXXXXXXXXXXXXXXX......oo....oo..   ",
"   ..XXXXXXXXXXXXXXXXXXXXXXXXXXXXXX....oo..oo..   ",
"   ..XXXXXXXXXXXXXXXXXXXXXXXXXXXXXX....oo..oo..   ",
"   ..XXXXXXXXXXXXXXXXXXXXXXXXXXXXXXXX..oooo..     ",
"   ..XXXXXXXXXXXXXXXXXXXXXXXXXXXXXXXX..oooo..     ",
"   ..XXXXXXXXXXXXXXXXXXXXXXXXXXXXXXXXXX......     ",
"   ..XXXXXXXXXXXXXXXXXXXXXXXXXXXXXXXXXX......     ",
"   ..XXXX..XXXXXXXXXXXXXXXXXXXXXXXXXXXXXXXX..     ",
"   ..XXXX..XXXXXXXXXXXXXXXXXXXXXXXXXXXXXXXX..     ",
"   ..XXXXXX....XXXXXXXXXXXXXXXXXXXXXXXX..XX..     ",
"   ..XXXXXX....XXXXXXXXXXXXXXXXXXXXXXXX..XX..     ",
"   ..XXXXXXXXXXXXXXXXXX..XXXXXXXXXXXXXX..XX..     ",
"   ..XXXXXXXXXXXXXXXXXX..XXXXXXXXXXXXXX..XX..     ",
"     ..XX......XXXXXXXX..XXXXXXXXXXXXXXXXXX..     ",
"     ..XX......XXXXXXXX..XXXXXXXXXXXXXXXXXX..     ",
"     ..XXXXXXXXXXXXXXXXXXXXXXXXXX....XXXX..       ",
"     ..XXXXXXXXXXXXXXXXXXXXXXXXXX....XXXX..       ",
"       ..XXXX..XXXXXXXXXXXXXXXXXXXXXXXXXX..       ",
"       ..XXXX..XXXXXXXXXXXXXXXXXXXXXXXXXX..       ",
"         ....XXXXXXXXXXXXXXXXXXXXXXXX....         ",
"         ....XXXXXXXXXXXXXXXXXXXXXXXX....         ",
"             ..........................           ",
"             ..........................           ",
"           ..OOOO..oo..OOOOOO..oo....             ",
"           ..OOOO..oo..OOOOOO..oo....             ",
"         ..OOOO..XX..oo......oo......             ",
"         ..OOOO..XX..oo......oo......             ",
"         ..OO..XXXXXX..oooooo..++....             ",
"         ..OO..XXXXXX..oooooo..++....             ",
"     ........XXXXXX..oooooooooo..oo..             ",
"     ........XXXXXX..oooooooooo..oo..             ",
"     ..++....XXXXXXXX..oooooooooooo..             ",
"     ..++....XXXXXXXX..oooooooooooo..             ",
"       ....oo..XXXXXX..oooooooooooo..             ",
"       ....oo..XXXXXX..oooooooooooo..             ",
"         ..oooo......oooooooo..........           ",
"         ..oooo......oooooooo..........           ",
"         ....oooooooooooooo..@@@@@@@@@@..         ",
"         ....oooooooooooooo..@@@@@@@@@@..         ",
"         ..................@@@@@@@@@@@@..         ",
"         ..................@@@@@@@@@@@@..         ",
"           ..XXXXXXXXXXXX..@@@@@@@@@@..           ",
"           ..XXXXXXXXXXXX..@@@@@@@@@@..           ",
"           ..XXXXXXXXXXXX@@..........             ",
"           ..XXXXXXXXXXXX@@..........             ",
"             ..............                       ",
"             ..............                       ",
"                                                  ",
"                                                  ",
"                                                  ",
"                                                  "
};
