/* XPM */
static char *result[] = {
/* columns rows colors chars-per-pixel */
"55 69 6 1 ",
"  c #04ADFF",
". c #280800",
"X c #DD0000",
"o c white",
"O c #FF80C0",
"+ c #F8F8F8",
/* pixels */
"                                                       ",
"                                                       ",
"                                                       ",
"                     ....                              ",
"                     ....                              ",
"         ............XXXX..            ......          ",
"         ............XXXX..            ......          ",
"       ....oooo..................  ....oooo..          ",
"       ....oooo..................  ....oooo..          ",
"       ..oooooooooo..oooooooooooo..oooooooooo..        ",
"       ..oooooooooo..oooooooooooo..oooooooooo..        ",
"       ..oooooooooooooooooooooooooooooooooooo..        ",
"       ..oooooooooooooooooooooooooooooooooooo..        ",
"       ..oooooooooooooooooooooooooooooooooooo..        ",
"       ..oooooooooooooooooooooooooooooooooooo..        ",
"       ....oooooooooooooooooooooooooooooooo....        ",
"       ....oooooooooooooooooooooooooooooooo....        ",
"       ..oooooooooooooooooooooooooooooooooooo..        ",
"       ..oooooooooooooooooooooooooooooooooooo..        ",
"     ..oooooooooooooooooooooooooooooooooooooooo..      ",
"     ..oooooooooooooooooooooooooooooooooooooooo..      ",
"     ..oooooooooooooooooooooooooooooooooooooooo..      ",
"     ..oooooooooooooooooooooooooooooooooooooooo..      ",
"     ..oooooooooooooooooooooooooooooooooooooooo..      ",
"     ..oooooooooooooooooooooooooooooooooooooooo..      ",
"   ....oooooooooooooooooooooooooooooooooooooo......    ",
"   ....oooooooooooooooooooooooooooooooooooooo......    ",
"     ..oooooooooooooooooooooooooooooooooooooooo..      ",
"     ..oooooooooooooooooooooooooooooooooooooooo..      ",
"     ....oooooooooooooooooooooooooooooooooooo....      ",
"     ....oooooooooooooooooooooooooooooooooooo....      ",
"   ....oooooooooooooooooooooooooooooooooooooooo....    ",
"   ....oooooooooooooooooooooooooooooooooooooooo....    ",
"       ..oooooooooooooooooooooooooooooooooooo..        ",
"       ..oooooooooooooooooooooooooooooooooooo..        ",
"       ....oooooooooooooooooooooooooooooooo....        ",
"       ....oooooooooooooooooooooooooooooooo....        ",
"     ..    ....oooooooooooooooooooo........    ..      ",
"     ..    ....oooooooooooooooooooo........    ..      ",
"             ............................              ",
"             ............................              ",
"           ..OOOO..XXXX..OOOO..XXXX..OOOO..            ",
"           ..OOOO..XXXX..OOOO..XXXX..OOOO..            ",
"         ..OOOOOO..XXXX........XXXX..OOOO....          ",
"         ..OOOOOO..XXXX........XXXX..OOOO....          ",
"         ..OOOO..XXXXXXXXXXXXXXXXXXXX....oooo..        ",
"         ..OOOO..XXXXXXXXXXXXXXXXXXXX....oooo..        ",
"       ..........XXXXXXXXXXXXXXXXXXXX....oooo..        ",
"       ..........XXXXXXXXXXXXXXXXXXXX....oooo..        ",
"       ..++++..XXXXXXXXXXXXXXXXXXXXXXXX..oooo..        ",
"       ..++++..XXXXXXXXXXXXXXXXXXXXXXXX..oooo..        ",
"       ..++++..XXXXXXXXXXXX..XXXXXXXXXX......          ",
"       ..++++..XXXXXXXXXXXX..XXXXXXXXXX......          ",
"       ..++++..XXXXXXXXXX..oo..XXXXXXXX..              ",
"       ..++++..XXXXXXXXXX..oo..XXXXXXXX..              ",
"         ......XXXXXXXXXXXX..XXXXXXXX....              ",
"         ......XXXXXXXXXXXX..XXXXXXXX....              ",
"             ....XXXXXXXXXX..........++..              ",
"             ....XXXXXXXXXX..........++..              ",
"             ..++............++++++++oo..              ",
"             ..++............++++++++oo..              ",
"             ..oo++++++++++............                ",
"             ..oo++++++++++............                ",
"             ....++++++++++..                          ",
"             ....++++++++++..                          ",
"               ............                            ",
"               ............                            ",
"                                                       ",
"                                                       "
};
