/* XPM */
static char *result[] = {
/* columns rows colors chars-per-pixel */
"50 69 6 1 ",
"  c #04ADFF",
". c #280800",
"X c white",
"o c #DD0000",
"O c #FF80C0",
"+ c #F8F8F8",
/* pixels */
"                                                  ",
"                                                  ",
"                                                  ",
"                                                  ",
"                                                  ",
"      ......                  ..........          ",
"      ......                  ..........          ",
"    ..XXXXXX..................oooo..XX..          ",
"    ..XXXXXX..................oooo..XX..          ",
"    ..XXXXXXXX..XXXXXXXXXXXX..oooo....XX..        ",
"    ..XXXXXXXX..XXXXXXXXXXXX..oooo....XX..        ",
"    ..XXXXXXXXXXXXXXXXXXXXXX........oo......      ",
"    ..XXXXXXXXXXXXXXXXXXXXXX........oo......      ",
"  ..XXXXXXXXXXXXXXXXXXXXXXXX..oo..oooooo..oo..    ",
"  ..XXXXXXXXXXXXXXXXXXXXXXXX..oo..oooooo..oo..    ",
"  ..XXXXXXXXXXXXXXXXXXXXXXXX..oo..oooooo..oo..    ",
"  ..XXXXXXXXXXXXXXXXXXXXXXXX..oo..oooooo..oo..    ",
"  ..XXXXXXXXXXXXXXXXXXXXXXXXXX......oo....oo..    ",
"  ..XXXXXXXXXXXXXXXXXXXXXXXXXX......oo....oo..    ",
"  ..XXXXXXXXXXXXXXXXXXXXXXXXXXXXXX....oo..oo..    ",
"  ..XXXXXXXXXXXXXXXXXXXXXXXXXXXXXX....oo..oo..    ",
"  ..XXXXXXXXXXXXXXXXXXXXXXXXXXXXXXXX..oooo..      ",
"  ..XXXXXXXXXXXXXXXXXXXXXXXXXXXXXXXX..oooo..      ",
"  ..XXXXXXXXXXXXXXXXXXXXXXXXXXXXXXXXXX......      ",
"  ..XXXXXXXXXXXXXXXXXXXXXXXXXXXXXXXXXX......      ",
"  ..XXXX..XXXXXXXXXXXXXXXXXXXXXXXXXXXXXXXX..      ",
"  ..XXXX..XXXXXXXXXXXXXXXXXXXXXXXXXXXXXXXX..      ",
"  ..XXXXXX....XXXXXXXXXXXXXXXXXXXXXXXX..XX..      ",
"  ..XXXXXX....XXXXXXXXXXXXXXXXXXXXXXXX..XX..      ",
"  ..XXXXXXXXXXXXXXXXXX..XXXXXXXXXXXXXX..XX..      ",
"  ..XXXXXXXXXXXXXXXXXX..XXXXXXXXXXXXXX..XX..      ",
"    ..XX......XXXXXXXX..XXXXXXXXXXXXXXXXXX..      ",
"    ..XX......XXXXXXXX..XXXXXXXXXXXXXXXXXX..      ",
"    ..XXXXXXXXXXXXXXXXXXXXXXXXXX....XXXX..        ",
"    ..XXXXXXXXXXXXXXXXXXXXXXXXXX....XXXX..        ",
"      ..XXXX..XXXXXXXXXXXXXXXXXXXXXXXXXX..        ",
"      ..XXXX..XXXXXXXXXXXXXXXXXXXXXXXXXX..        ",
"        ....XXXXXXXXXXXXXXXXXXXXXXXX....          ",
"        ....XXXXXXXXXXXXXXXXXXXXXXXX....          ",
"            ..........................            ",
"            ..........................            ",
"        ....OO..oooo..OOOOOOOO..oo..OO......      ",
"        ....OO..oooo..OOOOOOOO..oo..OO......      ",
"      ....OOOO..oo..oo........oo....OO..++++..    ",
"      ....OOOO..oo..oo........oo....OO..++++..    ",
"    ..XXXX....oo..++..oooooooo..++....++++..      ",
"    ..XXXX....oo..++..oooooooo..++....++++..      ",
"    ..XXXXXX..oooo....oooooooooo..oo..++++++..    ",
"    ..XXXXXX..oooo....oooooooooo..oo..++++++..    ",
"    ..XXXX..oooooooooooooooooooooooo..++++++..    ",
"    ..XXXX..oooooooooooooooooooooooo..++++++..    ",
"      ........oooooooooooooooooooooo........      ",
"      ........oooooooooooooooooooooo........      ",
"        ..XXXX..oooooooooooooooooooo..            ",
"        ..XXXX..oooooooooooooooooooo..            ",
"        ..XXXX....oooooooooooooooo..              ",
"        ..XXXX....oooooooooooooooo..              ",
"        ..XXXXXXXX..................              ",
"        ..XXXXXXXX..................              ",
"          ..XXXXXXXXXX..XXXXXXXXXXXX..            ",
"          ..XXXXXXXXXX..XXXXXXXXXXXX..            ",
"            ............XXXXXXXXXXXX..            ",
"            ............XXXXXXXXXXXX..            ",
"                        ............              ",
"                        ............              ",
"                                                  ",
"                                                  ",
"                                                  ",
"                                                  "
};
