/* XPM */
static char *result[] = {
/* columns rows colors chars-per-pixel */
"50 68 7 1 ",
"  c #04ADFF",
". c #280800",
"X c white",
"o c #DD0000",
"O c #FF80C0",
"+ c #F8F8F8",
"@ c #DCFFFF",
/* pixels */
"                                                  ",
"                                                  ",
"                                                  ",
"                                                  ",
"       ......            ....      ......         ",
"       ......            ....      ......         ",
"       ..XXXX..  ....  ..oooo......XXXXXX..       ",
"       ..XXXX..  ....  ..oooo......XXXXXX..       ",
"     ..XXXXXXXX..XXXX..oooooo........XXXX..       ",
"     ..XXXXXXXX..XXXX..oooooo........XXXX..       ",
"     ..XXXXXXXXXXXXXX..oo......oooo........       ",
"     ..XXXXXXXXXXXXXX..oo......oooo........       ",
"     ....XXXXXXXXXXXX..oooo..oooooooo..oooo..     ",
"     ....XXXXXXXXXXXX..oooo..oooooooo..oooo..     ",
"     ..XXXXXXXXXXXXXX..oooo..oooooooo..oooo..     ",
"     ..XXXXXXXXXXXXXX..oooo..oooooooo..oooo..     ",
"     ..XXXXXXXXXXXXXXXX........oooo......oo..     ",
"     ..XXXXXXXXXXXXXXXX........oooo......oo..     ",
"   ..XXXXXXXXXXXXXXXXXXXXXXXX......oo..oooo..     ",
"   ..XXXXXXXXXXXXXXXXXXXXXXXX......oo..oooo..     ",
"   ..XXXXXXXXXXXXXXXXXXXXXXXXXXXX..oooooo....     ",
"   ..XXXXXXXXXXXXXXXXXXXXXXXXXXXX..oooooo....     ",
"   ..XXXXXXXXXXXXXXXXXXXXXXXXXXXXXX......XX..     ",
"   ..XXXXXXXXXXXXXXXXXXXXXXXXXXXXXX......XX..     ",
"   ..XXXXXXXXXXXXXXXXXXXXXXXXXXXXXXXX..XXXX..     ",
"   ..XXXXXXXXXXXXXXXXXXXXXXXXXXXXXXXX..XXXX..     ",
"   ..XX..XXXXXXXXXXXXXXXXXXXXXXXX....XXXXXX..     ",
"   ..XX..XXXXXXXXXXXXXXXXXXXXXXXX....XXXXXX..     ",
"   ..XX..XXXXXXXXXXXXXX..XXXXXXXXXXXXXXXXXX..     ",
"   ..XX..XXXXXXXXXXXXXX..XXXXXXXXXXXXXXXXXX..     ",
"   ..XXXXXXXXXXXXXXXXXX..XXXXXXXX......XX..       ",
"   ..XXXXXXXXXXXXXXXXXX..XXXXXXXX......XX..       ",
"     ..XXXX....XXXXXXXXXXXXXXXXXXXXXXXXXX..       ",
"     ..XXXX....XXXXXXXXXXXXXXXXXXXXXXXXXX..       ",
"     ..XXXXXXXXXXXXXXXXXXXXXXXXXX..XXXX..         ",
"     ..XXXXXXXXXXXXXXXXXXXXXXXXXX..XXXX..         ",
"       ....XXXXXXXXXXXXXXXXXXXXXXXX....           ",
"       ....XXXXXXXXXXXXXXXXXXXXXXXX....           ",
"           ........................               ",
"           ........................               ",
"           ....oo..OOOOOO..oo..OOOO..             ",
"           ....oo..OOOOOO..oo..OOOO..             ",
"           ......oo......oo..XX..OOOO..           ",
"           ......oo......oo..XX..OOOO..           ",
"           ....++..oooooo..XXXXXX..OO..           ",
"           ....++..oooooo..XXXXXX..OO..           ",
"           ..oo..oooooooooo..XXXXXX........       ",
"           ..oo..oooooooooo..XXXXXX........       ",
"           ..oooooooooooo..XXXXXXXX....++..       ",
"           ..oooooooooooo..XXXXXXXX....++..       ",
"           ..oooooooooooo..XXXXXX..oo....         ",
"           ..oooooooooooo..XXXXXX..oo....         ",
"         ..........oooooooo......oooo..           ",
"         ..........oooooooo......oooo..           ",
"       ..@@@@@@@@@@..oooooooooooooo....           ",
"       ..@@@@@@@@@@..oooooooooooooo....           ",
"       ..@@@@@@@@@@@@..................           ",
"       ..@@@@@@@@@@@@..................           ",
"         ..@@@@@@@@@@..XXXXXXXXXXXX..             ",
"         ..@@@@@@@@@@..XXXXXXXXXXXX..             ",
"           ..........@@XXXXXXXXXXXX..             ",
"           ..........@@XXXXXXXXXXXX..             ",
"                     ..............               ",
"                     ..............               ",
"                                                  ",
"                                                  ",
"                                                  ",
"                                                  "
};
