/* XPM */
static char *result[] = {
/* columns rows colors chars-per-pixel */
"59 66 7 1 ",
"  c #04ADFF",
". c #280800",
"X c white",
"o c #DD0000",
"O c #FF80C0",
"+ c #F8F8E8",
"@ c #F8F8F8",
/* pixels */
"                                                           ",
"                                                           ",
"                                                           ",
"          ......            ....      ......               ",
"          ......            ....      ......               ",
"          ..XXXX..  ....  ..oooo......XXXXXX..             ",
"          ..XXXX..  ....  ..oooo......XXXXXX..             ",
"        ..XXXXXXXX..XXXX..oooooo........XXXX..             ",
"        ..XXXXXXXX..XXXX..oooooo........XXXX..             ",
"        ..XXXXXXXXXXXXXX..oo......oooo........             ",
"        ..XXXXXXXXXXXXXX..oo......oooo........             ",
"        ....XXXXXXXXXXXX..oooo..oooooooo..oooo..           ",
"        ....XXXXXXXXXXXX..oooo..oooooooo..oooo..           ",
"        ..XXXXXXXXXXXXXX..oooo..oooooooo..oooo..           ",
"        ..XXXXXXXXXXXXXX..oooo..oooooooo..oooo..           ",
"        ..XXXXXXXXXXXXXXXX........oooo......oo..           ",
"        ..XXXXXXXXXXXXXXXX........oooo......oo..           ",
"      ..XXXXXXXXXXXXXXXXXXXXXXXX......oo..oooo..           ",
"      ..XXXXXXXXXXXXXXXXXXXXXXXX......oo..oooo..           ",
"      ..XXXXXXXXXXXXXXXXXXXXXXXXXXXX..oooooo....           ",
"      ..XXXXXXXXXXXXXXXXXXXXXXXXXXXX..oooooo....           ",
"      ..XXXXXXXXXXXXXXXXXXXXXXXXXXXXXX......XX..           ",
"      ..XXXXXXXXXXXXXXXXXXXXXXXXXXXXXX......XX..           ",
"      ..XXXXXXXXXXXXXXXXXXXXXXXXXXXXXXXX..XXXX..           ",
"      ..XXXXXXXXXXXXXXXXXXXXXXXXXXXXXXXX..XXXX..           ",
"      ..XX..XXXXXXXXXXXXXXXXXXXXXXXX....XXXXXX..           ",
"      ..XX..XXXXXXXXXXXXXXXXXXXXXXXX....XXXXXX..           ",
"      ..XX..XXXXXXXXXXXXXX..XXXXXXXXXXXXXXXXXX..           ",
"      ..XX..XXXXXXXXXXXXXX..XXXXXXXXXXXXXXXXXX..           ",
"      ..XXXXXXXXXXXXXXXXXX..XXXXXXXX......XX..             ",
"      ..XXXXXXXXXXXXXXXXXX..XXXXXXXX......XX..             ",
"        ..XXXX....XXXXXXXXXXXXXXXXXXXXXXXXXX..             ",
"        ..XXXX....XXXXXXXXXXXXXXXXXXXXXXXXXX..             ",
"        ..XXXXXXXXXXXXXXXXXXXXXXXXXX..XXXX..               ",
"        ..XXXXXXXXXXXXXXXXXXXXXXXXXX..XXXX..               ",
"          ....XXXXXXXXXXXXXXXXXXXXXXXX....                 ",
"          ....XXXXXXXXXXXXXXXXXXXXXXXX....                 ",
"              ........................                     ",
"              ........................                     ",
"              ......OOOOOO..oooo..OOOO....                 ",
"              ......OOOOOO..oooo..OOOO....                 ",
"            ......oo......oo..oo..OOOOOOOO..               ",
"            ......oo......oo..oo..OOOOOOOO..               ",
"          ......++..oooooo..++..oo..OOOOOO..               ",
"          ......++..oooooo..++..oo..OOOOOO..               ",
"        ..@@..oo..oooooooooo..oooooo......XX..             ",
"        ..@@..oo..oooooooooo..oooooo......XX..             ",
"        ..@@..oooooooooooooooooooooo..XXXXXX..             ",
"        ..@@..oooooooooooooooooooooo..XXXXXX..             ",
"        ..@@..oooooooooooooooooooooo..XXXXXX..             ",
"        ..@@..oooooooooooooooooooooo..XXXXXX..             ",
"          ....oooooooooooooooooooooooo......               ",
"          ....oooooooooooooooooooooooo......               ",
"            ....oooo..oooooooooooooo..                     ",
"            ....oooo..oooooooooooooo..                     ",
"            ..XX......................                     ",
"            ..XX......................                     ",
"            ..XXXXXX..XXXXXXXXXXXXXX..                     ",
"            ..XXXXXX..XXXXXXXXXXXXXX..                     ",
"            ..XXXXXX..XXXXXXXXXXXXXX..                     ",
"            ..XXXXXX..XXXXXXXXXXXXXX..                     ",
"              ......................                       ",
"              ......................                       ",
"                                                           ",
"                                                           ",
"                                                           "
};
