/* XPM */
static char *result[] = {
/* columns rows colors chars-per-pixel */
"50 69 6 1 ",
"  c #04ADFF",
". c #280800",
"X c #DD0000",
"o c white",
"O c #FF80C0",
"+ c #F8F8F8",
/* pixels */
"                                                  ",
"                                                  ",
"                                                  ",
"                   ....                           ",
"                   ....                           ",
"       ............XXXX..            ......       ",
"       ............XXXX..            ......       ",
"     ....oooo..................  ....oooo..       ",
"     ....oooo..................  ....oooo..       ",
"     ..oooooooooo..oooooooooooo..oooooooooo..     ",
"     ..oooooooooo..oooooooooooo..oooooooooo..     ",
"     ..oooooooooooooooooooooooooooooooooooo..     ",
"     ..oooooooooooooooooooooooooooooooooooo..     ",
"     ..oooooooooooooooooooooooooooooooooooo..     ",
"     ..oooooooooooooooooooooooooooooooooooo..     ",
"     ....oooooooooooooooooooooooooooooooo....     ",
"     ....oooooooooooooooooooooooooooooooo....     ",
"     ..oooooooooooooooooooooooooooooooooooo..     ",
"     ..oooooooooooooooooooooooooooooooooooo..     ",
"   ..oooooooooooooooooooooooooooooooooooooooo..   ",
"   ..oooooooooooooooooooooooooooooooooooooooo..   ",
"   ..oooooooooooooooooooooooooooooooooooooooo..   ",
"   ..oooooooooooooooooooooooooooooooooooooooo..   ",
"   ..oooooooooooooooooooooooooooooooooooooooo..   ",
"   ..oooooooooooooooooooooooooooooooooooooooo..   ",
" ....oooooooooooooooooooooooooooooooooooooo...... ",
" ....oooooooooooooooooooooooooooooooooooooo...... ",
"   ..oooooooooooooooooooooooooooooooooooooooo..   ",
"   ..oooooooooooooooooooooooooooooooooooooooo..   ",
"   ....oooooooooooooooooooooooooooooooooooo....   ",
"   ....oooooooooooooooooooooooooooooooooooo....   ",
" ....oooooooooooooooooooooooooooooooooooooooo.... ",
" ....oooooooooooooooooooooooooooooooooooooooo.... ",
"     ..oooooooooooooooooooooooooooooooooooo..     ",
"     ..oooooooooooooooooooooooooooooooooooo..     ",
"     ....oooooooooooooooooooooooooooooooo....     ",
"     ....oooooooooooooooooooooooooooooooo....     ",
"   ..    ....oooooooooooooooooooooooo....    ..   ",
"   ..    ....oooooooooooooooooooooooo....    ..   ",
"           ............................           ",
"           ............................           ",
"         ..OOOO..XXXX..OOOO..XXXX..OOOO..         ",
"         ..OOOO..XXXX..OOOO..XXXX..OOOO..         ",
"       ..OOOOOO..XXXX........XXXX..OOOOOO..       ",
"       ..OOOOOO..XXXX........XXXX..OOOOOO..       ",
"       ....OO..XXXXXXXXXXXXXXXXXXXX..OO....       ",
"       ....OO..XXXXXXXXXXXXXXXXXXXX..OO....       ",
"     ..oooo....XXXXXXXXXXXXXXXXXXXX....++++..     ",
"     ..oooo....XXXXXXXXXXXXXXXXXXXX....++++..     ",
"     ..oooo..XXXXXXXXXXXXXXXXXXXXXXXX..++++..     ",
"     ..oooo..XXXXXXXXXXXXXXXXXXXXXXXX..++++..     ",
"     ..oooo..XXXXXXXXXXXX..XXXXXXXXXX..++++..     ",
"     ..oooo..XXXXXXXXXXXX..XXXXXXXXXX..++++..     ",
"       ......XXXXXXXXXX..oo..XXXXXXXX......       ",
"       ......XXXXXXXXXX..oo..XXXXXXXX......       ",
"           ....XXXXXXXXXX..XXXXXXXX....           ",
"           ....XXXXXXXXXX..XXXXXXXX....           ",
"           ..++....................++..           ",
"           ..++....................++..           ",
"           ..oo++++++++++..++++++++oo..           ",
"           ..oo++++++++++..++++++++oo..           ",
"           ..oo++++++++++..++++++++oo..           ",
"           ..oo++++++++++..++++++++oo..           ",
"             ............  ..........             ",
"             ............  ..........             ",
"                                                  ",
"                                                  ",
"                                                  ",
"                                                  "
};
