/* XPM */
static char *result[] = {
/* columns rows colors chars-per-pixel */
"50 69 7 1 ",
"  c #04ADFF",
". c #280800",
"X c white",
"o c #DD0000",
"O c #FF80C0",
"+ c #F8F8E8",
"@ c #F8F8F8",
/* pixels */
"                                                  ",
"                                                  ",
"                                                  ",
"                                                  ",
"                                                  ",
"      ......                  ..........          ",
"      ......                  ..........          ",
"    ..XXXXXX..................oooo..XX..          ",
"    ..XXXXXX..................oooo..XX..          ",
"    ..XXXXXXXX..XXXXXXXXXXXX..oooo....XX..        ",
"    ..XXXXXXXX..XXXXXXXXXXXX..oooo....XX..        ",
"    ..XXXXXXXXXXXXXXXXXXXXXX........oo......      ",
"    ..XXXXXXXXXXXXXXXXXXXXXX........oo......      ",
"  ..XXXXXXXXXXXXXXXXXXXXXXXX..oo..oooooo..oo..    ",
"  ..XXXXXXXXXXXXXXXXXXXXXXXX..oo..oooooo..oo..    ",
"  ..XXXXXXXXXXXXXXXXXXXXXXXX..oo..oooooo..oo..    ",
"  ..XXXXXXXXXXXXXXXXXXXXXXXX..oo..oooooo..oo..    ",
"  ..XXXXXXXXXXXXXXXXXXXXXXXXXX......oo....oo..    ",
"  ..XXXXXXXXXXXXXXXXXXXXXXXXXX......oo....oo..    ",
"  ..XXXXXXXXXXXXXXXXXXXXXXXXXXXXXX....oo..oo..    ",
"  ..XXXXXXXXXXXXXXXXXXXXXXXXXXXXXX....oo..oo..    ",
"  ..XXXXXXXXXXXXXXXXXXXXXXXXXXXXXXXX..oooo..      ",
"  ..XXXXXXXXXXXXXXXXXXXXXXXXXXXXXXXX..oooo..      ",
"  ..XXXXXXXXXXXXXXXXXXXXXXXXXXXXXXXXXX......      ",
"  ..XXXXXXXXXXXXXXXXXXXXXXXXXXXXXXXXXX......      ",
"  ..XXXX..XXXXXXXXXXXXXXXXXXXXXXXXXXXXXXXX..      ",
"  ..XXXX..XXXXXXXXXXXXXXXXXXXXXXXXXXXXXXXX..      ",
"  ..XXXXXX....XXXXXXXXXXXXXXXXXXXXXXXX..XX..      ",
"  ..XXXXXX....XXXXXXXXXXXXXXXXXXXXXXXX..XX..      ",
"  ..XXXXXXXXXXXXXXXXXX..XXXXXXXXXXXXXX..XX..      ",
"  ..XXXXXXXXXXXXXXXXXX..XXXXXXXXXXXXXX..XX..      ",
"    ..XX......XXXXXXXX..XXXXXXXXXXXXXXXXXX..      ",
"    ..XX......XXXXXXXX..XXXXXXXXXXXXXXXXXX..      ",
"    ..XXXXXXXXXXXXXXXXXXXXXXXXXX....XXXX..        ",
"    ..XXXXXXXXXXXXXXXXXXXXXXXXXX....XXXX..        ",
"      ..XXXX..XXXXXXXXXXXXXXXXXXXXXXXXXX..        ",
"      ..XXXX..XXXXXXXXXXXXXXXXXXXXXXXXXX..        ",
"        ....XXXXXXXXXXXXXXXXXXXXXXXX....          ",
"        ....XXXXXXXXXXXXXXXXXXXXXXXX....          ",
"            ........................              ",
"            ........................              ",
"        ....OOOO..oooo..OOOOOO......              ",
"        ....OOOO..oooo..OOOOOO......              ",
"      ..OOOOOOOO..oo..oo......oo......            ",
"      ..OOOOOOOO..oo..oo......oo......            ",
"      ..OOOOOO..oo..++..oooooo..++......          ",
"      ..OOOOOO..oo..++..oooooo..++......          ",
"    ..XX......oooooo..oooooooooo..oo..@@..        ",
"    ..XX......oooooo..oooooooooo..oo..@@..        ",
"    ..XXXXXX..oooooooooooooooooooooo..@@..        ",
"    ..XXXXXX..oooooooooooooooooooooo..@@..        ",
"    ..XXXXXX..oooooooooooooooooooooo..@@..        ",
"    ..XXXXXX..oooooooooooooooooooooo..@@..        ",
"      ......oooooooooooooooooooooooo....          ",
"      ......oooooooooooooooooooooooo....          ",
"            ..oooooooooooooo..oooo....            ",
"            ..oooooooooooooo..oooo....            ",
"            ......................XX..            ",
"            ......................XX..            ",
"            ..XXXXXXXXXXXXXX..XXXXXX..            ",
"            ..XXXXXXXXXXXXXX..XXXXXX..            ",
"            ..XXXXXXXXXXXXXX..XXXXXX..            ",
"            ..XXXXXXXXXXXXXX..XXXXXX..            ",
"              ......................              ",
"              ......................              ",
"                                                  ",
"                                                  ",
"                                                  ",
"                                                  "
};
