/* XPM */
static char *standby_foward1710768127[] = {
/* columns rows colors chars-per-pixel */
"58 70 6 1 ",
"  c #04ADFF",
". c #280800",
"X c white",
"o c #DD0000",
"O c #F8F8F8",
"+ c #FF80C0",
/* pixels */
"                                                          ",
"                                                          ",
"                                                          ",
"                                                          ",
"                                                          ",
"                                                          ",
"          ......              ....      ......            ",
"          ......              ....      ......            ",
"          ..XXXX....  ........oooo......OOOOOO..          ",
"          ..XXXX....  ........oooo......OOOOOO..          ",
"        ..XXXXXXXXXX..XXXX..oooooo........OOOO..          ",
"        ..XXXXXXXXXX..XXXX..oooooo........OOOO..          ",
"        ..XXXXXXXXXXXXXXXX..oo......oooo........          ",
"        ..XXXXXXXXXXXXXXXX..oo......oooo........          ",
"        ..XXXXXXXXXXXXXXXX..oooo..oooooooo..oooo..        ",
"        ..XXXXXXXXXXXXXXXX..oooo..oooooooo..oooo..        ",
"        ....XXXXXXXXXXXXXX..oooo..oooooooo..oooo..        ",
"        ....XXXXXXXXXXXXXX..oooo..oooooooo..oooo..        ",
"        ..XXXXXXXXXXXXXXXXXX........oooo......oo..        ",
"        ..XXXXXXXXXXXXXXXXXX........oooo......oo..        ",
"      ..XXXXXXXXXXXXXXXXXXXXXXXXXX......oo..oooo..        ",
"      ..XXXXXXXXXXXXXXXXXXXXXXXXXX......oo..oooo..        ",
"      ..XXXXXXXXXXXXXXXXXXXXXXXXXXXXXX..oooooo....        ",
"      ..XXXXXXXXXXXXXXXXXXXXXXXXXXXXXX..oooooo....        ",
"      ..XXXXXXXXXXXXXXXXXXXXXXXXXXXXXXXX......XX..        ",
"      ..XXXXXXXXXXXXXXXXXXXXXXXXXXXXXXXX......XX..        ",
"    ......XXXXXXXXXXXXXXXXXXXXXXXXXXXXXXXXXXXXXX....      ",
"    ......XXXXXXXXXXXXXXXXXXXXXXXXXXXXXXXXXXXXXX....      ",
"      ..XXXXXXXX..XXXXXXXXXXXXXXXXXXXX..XXXXXXXX..        ",
"      ..XXXXXXXX..XXXXXXXXXXXXXXXXXXXX..XXXXXXXX..        ",
"      ....XXXXXX..XXXXXXXXXXXXXXXXXXXX..XXXXXX....        ",
"      ....XXXXXX..XXXXXXXXXXXXXXXXXXXX..XXXXXX....        ",
"    ....XXXXXXXXXXXXXXXXXX....XXXXXXXXXXXXXXXXXX....      ",
"    ....XXXXXXXXXXXXXXXXXX....XXXXXXXXXXXXXXXXXX....      ",
"        ..XXXXXXXXXXXXXXXXXXXXXXXXXXXXXXXXXXXX..          ",
"        ..XXXXXXXXXXXXXXXXXXXXXXXXXXXXXXXXXXXX..          ",
"        ....XXXXXXXXXXXXXXXXXXXXXXXXXXXXXXXX....          ",
"        ....XXXXXXXXXXXXXXXXXXXXXXXXXXXXXXXX....          ",
"      ..    ....XXXXXXXXXXXXXXXXXXXXXXXX....    ..        ",
"      ..    ....XXXXXXXXXXXXXXXXXXXXXXXX....    ..        ",
"              ............................                ",
"              ............................                ",
"            ..++++..oooo..++++..oooo..++++..              ",
"            ..++++..oooo..++++..oooo..++++..              ",
"          ..++++++....oo........oo....++++++..            ",
"          ..++++++....oo........oo....++++++..            ",
"          ....++....OO..oooooooo..OO....++....            ",
"          ....++....OO..oooooooo..OO....++....            ",
"        ..XXXX....oo..oooooooooooo..oo....OOOO..          ",
"        ..XXXX....oo..oooooooooooo..oo....OOOO..          ",
"        ..XXXX..oooooooooooooooooooooooo..OOOO..          ",
"        ..XXXX..oooooooooooooooooooooooo..OOOO..          ",
"        ..XXXX..oooooooooooooooooooooooo..OOOO..          ",
"        ..XXXX..oooooooooooooooooooooooo..OOOO..          ",
"          ......oooooooooooooooooooooooo......            ",
"          ......oooooooooooooooooooooooo......            ",
"              ....oooooooooo..oooooooo....                ",
"              ....oooooooooo..oooooooo....                ",
"              ..OO....................OO..                ",
"              ..OO....................OO..                ",
"              ..XXOOOOOOOOOO..OOOOOOOOXX..                ",
"              ..XXOOOOOOOOOO..OOOOOOOOXX..                ",
"              ..XXOOOOOOOOOO..OOOOOOOOXX..                ",
"              ..XXOOOOOOOOOO..OOOOOOOOXX..                ",
"                ............  ..........                  ",
"                ............  ..........                  ",
"                                                          ",
"                                                          ",
"                                                          ",
"                                                          "
};
