/* XPM */
static char *result[] = {
/* columns rows colors chars-per-pixel */
"64 64 10 1 ",
"  c #E39DAB",
". c #C21018",
"X c #ED1C24",
"o c #9C5A3C",
"O c #C47D5E",
"+ c #22B14C",
"@ c #A8E61D",
"# c #E67084",
"$ c #E39DAB",
"% c #FFBFCB",
/* pixels */
"                                                                ",
" $$$$$$$$$$$$$$$$$$$$$$$$$$$$$$$$$$$$$$$$$$$$$$$$$$$$$$$$$$$$$$ ",
" $$$$$$$$$      $$$$$$$$$$$$$$$$$$$$$$$$$$$$$       $$$$$$$$$$$ ",
" $$$$$$$$$ ++++ $$$$$$$$$$$$$$$$$$$$$$$$$$$$$ +++++ $$$$$$$$$$$ ",
" $$$$$$$$$ ++++ $$$$$$$$$$$$$$$$$$$$$$$$$$$$$ +++++ $$$$$$$$$$$ ",
" $$$$$$$$$ ++++ $$$$$$$$$$$$$$$$$$$$$$$$$$$$$ +++++ $$$$$$$$$$$ ",
" $$$$$$$$$ ++++ $$$$$$$$$$$$$$$$$$$$$$$$$$$$$ +++++ $$$$$$$$$$$ ",
" $$$       ++++       $$$$$$      $$$$$$      +++++       $$$$$ ",
" $$$ +..++++++..+++++ $$$$$$ ++++ $$$$$$ ++++++++++++++++ $$$$$ ",
" $$$ .XX.+..+.XX.++++ $$$$$$ ++++ $$$$$$ ++++++++++++++++ $$$$$ ",
" $$$ .XXX....XXX.++++ $$$$$$ ++++ $$$$$$ ++++++@@@+++++++ $$$$$ ",
" $$$ .X........X.++++ $$$$$$ ++++ $$$$$$ ++++++@@@+++++++ $$$$$ ",
" $$$ .XX.+..@.XX.++++ $$$$$$ ++++ $$$$$$ ++++++@@@+++++++ $$$$$ ",
" $$$ +..@@@@@@..@@@@@        ++++        @@@@@@@@@@@@@@@+ $$$$$ ",
" $$$ +@@@@@@@@@@@@@@@@++++++++++++++++++@@@@@@@@@@@@@@@@+ $$$$$ ",
" $$$ +@@@@@@@@@@@@@@@@++++++++++++++++++@@@@@@@@@@@@@@@@+ $$$$$ ",
" $$$ +@@@@@@@@@@@@@@@@++++++++++++++++++@@@@@@@@@@@@@@@@+ $$$$$ ",
" $$$ +@@@@@@@@@@@@@@++++++++++++++++++++++@@@@@@@@@@@@@@+ $$$$$ ",
" $$$ +@@@@@@@@@@@@@@++++++++++++++++++++++@@@@@@@@@@@@@@+ $$$$$ ",
" $$$ +@@@@@@@@@@@@@@++++++++++++++++++++++@@@@@@@@@@@@@@+ $$$$$ ",
" $$$ +@@@@@@@@@@@@@@++++++++++++++++++++++@@@@@@@@@@@@@@+ $$$$$ ",
" $$$ +@@@@@@@@@@@@@@++++++++++++++++++++++@@@@@@@@@@@@@@+ $$$$$ ",
" $$$ +@@@@@@@@@@@@@@++++++++++++++++++++++@@@@@@@@@@@@@@+ $$$$$ ",
" $$$ +@@@@@@@@@@@@@@@@++++++++++++++++++@@@@@@@@@@@@@@@@+ $$$$$ ",
" $$$ +@@@@@@@@@@@@@@@@++++++++++++++++++@@@@@@..@@@@@@..+ $$$$$ ",
" $$$ +++++++@@@+++++++OOOOOO++++++OOOOOO+++++.XX.+..+.XX. $$$$$ ",
" $$$ +++++++@@@+++++++OOOOOO++++++OOOOOO+++++.XXX....XXX. $$$$$ ",
" $$$ +++++++@@@+++++++OOOOOO++++++OOOOOO+++++.X........X. $$$$$ ",
" $$$ +++++++++++++++++OOOOOO++++++OOOOOO+++++.XX.+..+.XX. $$$$$ ",
" $$$ +++++++++++++++++OOOOOO++++++OOOOOO++++++..++++++..+ $$$$$ ",
" $$$ ++++++++++       OOOOOO++++++OOOOOO       ++++       $$$$$ ",
" $$$       ++++ $$$$$ OOOOOOOOOOOOOOOOOO $$$$$ ++++ $$$$$$$$$$$ ",
" $$$$$$$$$ ++++ $$$$$ OOOOOOOOOOOOOOOOOO $$$$$ ++++ $$$$$$$$$$$ ",
" $$$$$$$$$ ++++ $$$$$ OOOOOOOOOOOOOOOOOO $$$$$ ++++ $$$$$$$$$$$ ",
" $$$$$$$$$ ++++ $$$$$ OOOOOOOOOOOOOOOOOO $$$$$ ++++ $$$$$$$$$$$ ",
" $$$$$$$$$ ++++ $$$$$ OOOOooOOOOOOOOOOOO $$$$$ ++++ $$$$$$$$$$$ ",
" $$$$$$$$$      $$$$$ OOOOooOOOOOOOOOOOO $$$$$      $$$$$$$$$$$ ",
" $$$$$$$$$$$$$$$$$$$$ OOOOooOOOOOOOOOOOO $$$$$$$$$$$$$$$$$$$$$$ ",
" $$$$$$$$$$$$$$$$$$$$ OOooooOOOOOOOOOOOO $$$$$$$$$$$$$$$$$$$$$$ ",
" $$$$$$$$$$%  $$$$$$$ OOooOOOOOOOOOOOOOO $$$$$$$$$$$$$$$$$$$$$$ ",
" $$$$$$$$$$%  $$$$$$$ OOooOOOOOOOOOOOOOO $$$$$$$$$$$$$$$$$$$$$$ ",
" $$$$$$$$$$%%#$$$$$$$ OOooOOOOOOOOOOOOOO $$$$$$$$$$##$$$$$$$$$$ ",
" $$$$$$$$$$$$$$$$$$$$ OOooOOOOOOOOOOOOOO $$$$$$$$$%%$$$$$$%%%%% ",
" $$$$$$$$$$$$$$$$$$$$ OOooOOOOOOOOOOOOOO $$$$$$$$$%%$$$$$$%     ",
" $#$$$$$$$$$$$$$$$$$$ OOooOOOOOOOOOOOOOO $$$$$$$$##$$$$$$$#     ",
" ##  $$$$$$$$$$$$$$$$ OOooOOOOOOOOOOOOOO $$$$$$$$$$$$$$$$$#$$$$ ",
"   %%$$$$$$$$$$$# $$$ OOooOOOOOOOOOOOOOO $$$$$$$$$$$$$$$$$$$$$$ ",
"   %%$$$$$$$$$$$# $$$ OOooOOOOOOOOOOOOOO $$$$$$$$$$$$$$$$$$$$$$ ",
"   %%$$$$$$$$$$$#  $$ OOooOOOOOOOOOOOOOO $$$$$$$$$$$$$$$$$$$$$$ ",
"   %%$$$$$$$$$$$$$ $$ OOooOOOOOOOOOOOOOO $$$$$$$$$$$$$$$$$$#%%$ ",
"   %%%$$$$$$$$$$$$$$$ OOooOOOOOOOOOOOOOO $$$$$$$$$$$$$$$$$$#%%$ ",
"   $$$$$$$$$$$$$$$$$$ OOooOOOOOOOOOOOOOO $$$$$$$$$$$$$$$$$$#%%  ",
"  $$$$$$$$$$$$$$$$$$$ OOooOOOOOOOOOOOOOO $$$$$$$$$$$$$$$$$$#%%% ",
" $$$$$$$$$$$$$$$$$$$$ OOooOOOOOOOOOOOOOO $$$$$$$$$$$$$$$$$$$%%% ",
" $$$$$$$$$$$$$$$$$$$$ OOooOOOOOOOoooOOOO $$$$$$$$$$$$$$$$$$$    ",
" $$$$$$$$$$$$$$$$$$$$ OOooOOOOOOOoooOOOO $$$$$$$$$$$$$$$$$$$    ",
" $$$$$$$$$$$%%%$$$    OOooOOOOOOOoooOOOO    $$$$$$$$$$$$$$$$$$$ ",
" $$$$$$$$$$$  $$$$ OOOOOooOOOOOOOoooOOOOOOO $$$$$$$###$$$$$$$$$ ",
" $$$$$$$$$$$$$$$$$ OOOOOooOOOOOOOoooOOOOOOO $$$$$$$  %$$$$$$$$$ ",
" $$$$$$$$$$$$$$$$ OOOoooOOOOOOOOOoooOOOOOOO  $$$$$$  %$$$$$$$$$ ",
" $$$$$$$$$$$$$$$$ OOOoooOOOOOOOOOoooOOOOOOOO $$$$$$  %%$$$$$$$$ ",
" $$$$$$$###%%%%$$ OooOOOOOOOOoooooooOOOOOOOO $$$$$$  %%$$$$$$$$ ",
" $$$$$$$###%%%$$$ OooOOOOOOOOoooooooOOOOOOOO $$$$$$$$ %$$$$$$$$ ",
"                  OOOOOOOOOOOOOOOOOOOOOOOOOO                    "
};
