/* XPM */
static char *result[] = {
/* columns rows colors chars-per-pixel */
"64 64 8 1 ",
"  c #063D04",
". c #115C0D",
"X c #E39DAB",
"o c #C21018",
"O c #ED1C24",
"+ c #10940C",
"@ c #0B852B",
"# c #E39DAB",
/* pixels */
"XXXXXXXXXXXXXXXXXXXXXXXXXXXXXXXXXXXXXXXXXXXXXXXXXXXXXXXXXXXXXXXX",
"X##############################################################X",
"X##############################################################X",
"X##############################################################X",
"X##############################################################X",
"X##############################################################X",
"X####################################XXXX#########XXXX#########X",
"X###################################XooooX#######XooooX########X",
"X##################################XoOOOOoX#XXX#XoOOOOoX#######X",
"X##################################XoOOOOOoXoOOXoOOOOOoX#######X",
"X##################################XoOOOOXXoOOOOXXOOOOoX#######X",
"X##################################XoOOOXoXoOOOOXoXOOOoX#######X",
"X##################################XoOOOOXXooOOoXXOOOOoX#######X",
"X##################################XoOOOOOoXoooXoOOOOOoX#######X",
"X##################################XoOOOOoX#####XoOOOOoX#######X",
"X###################################XooooX#######XooooX########X",
"X####################################XXXX#########XXXX#########X",
"X##############################################################X",
"X##############################################################X",
"X##############################################################X",
"X########################XXXXXXXXXX############################X",
"X#######################X++++@@@@@@XX##########################X",
"X#####################XX++++@@@@@@@..X#########################X",
"X####################X++++++@@@@@@@...X########################X",
"X###################X++++++@@@@@@......X#######################X",
"X###################X+++++@@@@@........ XXX####################X",
"X#################XX+++++@@@@........   +++XX##################X",
"X###############XX++++  @@@@.......  ++++++@@X#################X",
"X#############XX++++++++  @@.....    ++@@@@@@@X################X",
"X###########XX+++++++++..         +++ @@@@@@@@@X###############X",
"X##########X+++++++++++..        +++@@ @@@@@@@.@X##############X",
"X##########X+++++++++++....     +++@@@@    @@@..X##############X",
"X#########X++++++++++++....     +++@@@@@  @@....X##############X",
"X#########X++++++++++......     ++@@@@@@@@@@....X##############X",
"X########X+++++++++....+++++++++++@@@@@@@@@@@@  +X#############X",
"X########X++++++++....++++++++++++ @..@@....@ ++++X############X",
"X########X++++++++.. ++++++++++++.@ ........ ++++..X###########X",
"X########X+   ++++.  ++++++++......@  ... .  ++++..X###########X",
"X########X ++  +++  ++++++++.......@        +++++..X###########X",
"X#######X++++++   ++++++++++..+++++++++ +++++++....X###########X",
"X#######X++++++. +++++++++++..+++++++++++++++..... X###########X",
"X########X+++++..++++++++++...+++++++++++++++..    X###########X",
"X#########X+....+++++++......++++++++++++++       X############X",
"X##########XXX         ......++++++++++     XXXXXX#############X",
"X#############XXXXXXXXXXXXXXXXXXXXXXXXXXXXXX###################X",
"X##############################################################X",
"X##############################################################X",
"X##############################################################X",
"X##############################################################X",
"X##############################################################X",
"X####XXXX#########XXXX#########################################X",
"X###XooooX#######XooooX########################################X",
"X##XoOOOOoX#XXX#XoOOOOoX#######################################X",
"X##XoOOOOOoXoOOXoOOOOOoX#######################################X",
"X##XoOOOOXXoOOOOXXOOOOoX#######################################X",
"X##XoOOOXoXoOOOOXoXOOOoX#######################################X",
"X##XoOOOOXXooOOoXXOOOOoX#######################################X",
"X##XoOOOOOoXoooXoOOOOOoX#######################################X",
"X##XoOOOOoX#####XoOOOOoX#######################################X",
"X###XooooX#######XooooX########################################X",
"X####XXXX#########XXXX#########################################X",
"X##############################################################X",
"X##############################################################X",
"XXXXXXXXXXXXXXXXXXXXXXXXXXXXXXXXXXXXXXXXXXXXXXXXXXXXXXXXXXXXXXXX"
};
